(Exported by FreeCAD)
(Post Processor: script_module)
(Output Time:2025-05-28 21:58:42.602583)
(Begin preamble)
G17 G90
G21
(Begin operation: Fixture)
(Path: Fixture)
G54
(Finish operation: Fixture)
(Begin operation: 3mm)
(Path: 3mm)
(3mm)
(Begin toolchange)
( M6 T1 )
M3 S1
(Finish operation: 3mm)
(Begin operation: Pocket_Shape)
(Path: Pocket_Shape)
(Pocket_Shape)
G0 Z5.000
G0
G0 X20.750 Y19.250
G0 X20.750 Y19.250 Z3.000
G1 X20.750 Y19.250 Z-0.500 F400.000
G1 X20.750 Y20.750 Z-0.500 F400.000
G1 X19.250 Y20.750 Z-0.500 F400.000
G1 X19.250 Y19.250 Z-0.500 F400.000
G1 X20.750 Y19.250 Z-0.500 F400.000
G0 Z5.000
G0 X21.500 Y18.500 Z5.000
G0 X21.500 Y18.500 Z3.000
G1 X21.500 Y18.500 Z-0.500 F400.000
G1 X21.500 Y21.500 Z-0.500 F400.000
G1 X18.500 Y21.500 Z-0.500 F400.000
G1 X18.500 Y18.500 Z-0.500 F400.000
G1 X21.500 Y18.500 Z-0.500 F400.000
G0 Z5.000
G0 X23.900 Y16.100 Z5.000
G0 X23.900 Y16.100 Z3.000
G1 X23.900 Y16.100 Z-0.500 F400.000
G1 X23.900 Y23.900 Z-0.500 F400.000
G1 X16.100 Y23.900 Z-0.500 F400.000
G1 X16.100 Y16.100 Z-0.500 F400.000
G1 X23.900 Y16.100 Z-0.500 F400.000
G0 Z5.000
G0 X26.300 Y13.700 Z5.000
G0 X26.300 Y13.700 Z3.000
G1 X26.300 Y13.700 Z-0.500 F400.000
G1 X26.300 Y26.300 Z-0.500 F400.000
G1 X13.700 Y26.300 Z-0.500 F400.000
G1 X13.700 Y13.700 Z-0.500 F400.000
G1 X26.300 Y13.700 Z-0.500 F400.000
G0 Z5.000
G0 X28.700 Y11.300 Z5.000
G0 X28.700 Y11.300 Z3.000
G1 X28.700 Y11.300 Z-0.500 F400.000
G1 X28.700 Y28.700 Z-0.500 F400.000
G1 X11.300 Y28.700 Z-0.500 F400.000
G1 X11.300 Y11.300 Z-0.500 F400.000
G1 X28.700 Y11.300 Z-0.500 F400.000
G0 Z5.000
G0 X31.100 Y8.900 Z5.000
G0 X31.100 Y8.900 Z3.000
G1 X31.100 Y8.900 Z-0.500 F400.000
G1 X31.100 Y31.100 Z-0.500 F400.000
G1 X8.900 Y31.100 Z-0.500 F400.000
G1 X8.900 Y8.900 Z-0.500 F400.000
G1 X31.100 Y8.900 Z-0.500 F400.000
G0 Z5.000
G0 X33.500 Y6.500 Z5.000
G0 X33.500 Y6.500 Z3.000
G1 X33.500 Y6.500 Z-0.500 F400.000
G1 X33.500 Y33.500 Z-0.500 F400.000
G1 X6.500 Y33.500 Z-0.500 F400.000
G1 X6.500 Y6.500 Z-0.500 F400.000
G1 X33.500 Y6.500 Z-0.500 F400.000
G0 Z5.000
G0 X20.750 Y19.250 Z5.000
G0 X20.750 Y19.250 Z3.000
G1 X20.750 Y19.250 Z-0.900 F400.000
G1 X20.750 Y20.750 Z-0.900 F400.000
G1 X19.250 Y20.750 Z-0.900 F400.000
G1 X19.250 Y19.250 Z-0.900 F400.000
G1 X20.750 Y19.250 Z-0.900 F400.000
G0 Z5.000
G0 X21.500 Y18.500 Z5.000
G0 X21.500 Y18.500 Z3.000
G1 X21.500 Y18.500 Z-0.900 F400.000
G1 X21.500 Y21.500 Z-0.900 F400.000
G1 X18.500 Y21.500 Z-0.900 F400.000
G1 X18.500 Y18.500 Z-0.900 F400.000
G1 X21.500 Y18.500 Z-0.900 F400.000
G0 Z5.000
G0 X23.900 Y16.100 Z5.000
G0 X23.900 Y16.100 Z3.000
G1 X23.900 Y16.100 Z-0.900 F400.000
G1 X23.900 Y23.900 Z-0.900 F400.000
G1 X16.100 Y23.900 Z-0.900 F400.000
G1 X16.100 Y16.100 Z-0.900 F400.000
G1 X23.900 Y16.100 Z-0.900 F400.000
G0 Z5.000
G0 X26.300 Y13.700 Z5.000
G0 X26.300 Y13.700 Z3.000
G1 X26.300 Y13.700 Z-0.900 F400.000
G1 X26.300 Y26.300 Z-0.900 F400.000
G1 X13.700 Y26.300 Z-0.900 F400.000
G1 X13.700 Y13.700 Z-0.900 F400.000
G1 X26.300 Y13.700 Z-0.900 F400.000
G0 Z5.000
G0 X28.700 Y11.300 Z5.000
G0 X28.700 Y11.300 Z3.000
G1 X28.700 Y11.300 Z-0.900 F400.000
G1 X28.700 Y28.700 Z-0.900 F400.000
G1 X11.300 Y28.700 Z-0.900 F400.000
G1 X11.300 Y11.300 Z-0.900 F400.000
G1 X28.700 Y11.300 Z-0.900 F400.000
G0 Z5.000
G0 X31.100 Y8.900 Z5.000
G0 X31.100 Y8.900 Z3.000
G1 X31.100 Y8.900 Z-0.900 F400.000
G1 X31.100 Y31.100 Z-0.900 F400.000
G1 X8.900 Y31.100 Z-0.900 F400.000
G1 X8.900 Y8.900 Z-0.900 F400.000
G1 X31.100 Y8.900 Z-0.900 F400.000
G0 Z5.000
G0 X33.500 Y6.500 Z5.000
G0 X33.500 Y6.500 Z3.000
G1 X33.500 Y6.500 Z-0.900 F400.000
G1 X33.500 Y33.500 Z-0.900 F400.000
G1 X6.500 Y33.500 Z-0.900 F400.000
G1 X6.500 Y6.500 Z-0.900 F400.000
G1 X33.500 Y6.500 Z-0.900 F400.000
G0 Z5.000
G0 X20.750 Y19.250 Z5.000
G0 X20.750 Y19.250 Z3.000
G1 X20.750 Y19.250 Z-1.000 F400.000
G1 X20.750 Y20.750 Z-1.000 F400.000
G1 X19.250 Y20.750 Z-1.000 F400.000
G1 X19.250 Y19.250 Z-1.000 F400.000
G1 X20.750 Y19.250 Z-1.000 F400.000
G0 Z5.000
G0 X21.500 Y18.500 Z5.000
G0 X21.500 Y18.500 Z3.000
G1 X21.500 Y18.500 Z-1.000 F400.000
G1 X21.500 Y21.500 Z-1.000 F400.000
G1 X18.500 Y21.500 Z-1.000 F400.000
G1 X18.500 Y18.500 Z-1.000 F400.000
G1 X21.500 Y18.500 Z-1.000 F400.000
G0 Z5.000
G0 X23.900 Y16.100 Z5.000
G0 X23.900 Y16.100 Z3.000
G1 X23.900 Y16.100 Z-1.000 F400.000
G1 X23.900 Y23.900 Z-1.000 F400.000
G1 X16.100 Y23.900 Z-1.000 F400.000
G1 X16.100 Y16.100 Z-1.000 F400.000
G1 X23.900 Y16.100 Z-1.000 F400.000
G0 Z5.000
G0 X26.300 Y13.700 Z5.000
G0 X26.300 Y13.700 Z3.000
G1 X26.300 Y13.700 Z-1.000 F400.000
G1 X26.300 Y26.300 Z-1.000 F400.000
G1 X13.700 Y26.300 Z-1.000 F400.000
G1 X13.700 Y13.700 Z-1.000 F400.000
G1 X26.300 Y13.700 Z-1.000 F400.000
G0 Z5.000
G0 X28.700 Y11.300 Z5.000
G0 X28.700 Y11.300 Z3.000
G1 X28.700 Y11.300 Z-1.000 F400.000
G1 X28.700 Y28.700 Z-1.000 F400.000
G1 X11.300 Y28.700 Z-1.000 F400.000
G1 X11.300 Y11.300 Z-1.000 F400.000
G1 X28.700 Y11.300 Z-1.000 F400.000
G0 Z5.000
G0 X31.100 Y8.900 Z5.000
G0 X31.100 Y8.900 Z3.000
G1 X31.100 Y8.900 Z-1.000 F400.000
G1 X31.100 Y31.100 Z-1.000 F400.000
G1 X8.900 Y31.100 Z-1.000 F400.000
G1 X8.900 Y8.900 Z-1.000 F400.000
G1 X31.100 Y8.900 Z-1.000 F400.000
G0 Z5.000
G0 X33.500 Y6.500 Z5.000
G0 X33.500 Y6.500 Z3.000
G1 X33.500 Y6.500 Z-1.000 F400.000
G1 X33.500 Y33.500 Z-1.000 F400.000
G1 X6.500 Y33.500 Z-1.000 F400.000
G1 X6.500 Y6.500 Z-1.000 F400.000
G1 X33.500 Y6.500 Z-1.000 F400.000
G0 Z5.000
G0 Z5.000
(Finish operation: Pocket_Shape)
(Begin operation: Pocket_Shape001)
(Path: Pocket_Shape001)
(Pocket_Shape001)
G0 Z5.000
G0
G0 X19.906 Y20.533
G0 X19.906 Y20.533 Z3.000
G1 X19.906 Y20.533 Z-1.500 F400.000
G3 X20.094 Y19.467 Z-1.500 I0.094 J-0.533 K0.000 F400.000
G3 X19.906 Y20.533 Z-1.500 I-0.094 J0.533 K0.000 F400.000
G0 Z5.000
G0 X19.776 Y21.272 Z5.000
G0 X19.776 Y21.272 Z3.000
G1 X19.776 Y21.272 Z-1.500 F400.000
G3 X20.224 Y18.728 Z-1.500 I0.224 J-1.272 K0.000 F400.000
G3 X19.776 Y21.272 Z-1.500 I-0.224 J1.272 K0.000 F400.000
G0 Z5.000
G0 X19.359 Y23.638 Z5.000
G0 X19.359 Y23.638 Z3.000
G1 X19.359 Y23.638 Z-1.500 F400.000
G3 X16.362 Y19.359 Z-1.500 I0.641 J-3.638 K0.000 F400.000
G3 X20.641 Y16.362 Z-1.500 I3.638 J0.641 K0.000 F400.000
G3 X19.359 Y23.638 Z-1.500 I-0.641 J3.638 K0.000 F400.000
G0 Z5.000
G0 X18.941 Y26.004 Z5.000
G0 X18.941 Y26.004 Z3.000
G1 X18.941 Y26.004 Z-1.500 F400.000
G3 X21.059 Y13.996 Z-1.500 I1.059 J-6.004 K0.000 F400.000
G3 X18.941 Y26.004 Z-1.500 I-1.059 J6.004 K0.000 F400.000
G0 Z5.000
G0 X18.524 Y28.369 Z5.000
G0 X18.524 Y28.369 Z3.000
G1 X18.524 Y28.369 Z-1.500 F400.000
G3 X21.476 Y11.631 Z-1.500 I1.476 J-8.369 K0.000 F400.000
G3 X18.524 Y28.369 Z-1.500 I-1.476 J8.369 K0.000 F400.000
G0 Z5.000
G0 X19.906 Y20.533 Z5.000
G0 X19.906 Y20.533 Z3.000
G1 X19.906 Y20.533 Z-1.800 F400.000
G3 X20.094 Y19.467 Z-1.800 I0.094 J-0.533 K0.000 F400.000
G3 X19.906 Y20.533 Z-1.800 I-0.094 J0.533 K0.000 F400.000
G0 Z5.000
G0 X19.776 Y21.272 Z5.000
G0 X19.776 Y21.272 Z3.000
G1 X19.776 Y21.272 Z-1.800 F400.000
G3 X20.224 Y18.728 Z-1.800 I0.224 J-1.272 K0.000 F400.000
G3 X19.776 Y21.272 Z-1.800 I-0.224 J1.272 K0.000 F400.000
G0 Z5.000
G0 X19.359 Y23.638 Z5.000
G0 X19.359 Y23.638 Z3.000
G1 X19.359 Y23.638 Z-1.800 F400.000
G3 X16.362 Y19.359 Z-1.800 I0.641 J-3.638 K0.000 F400.000
G3 X20.641 Y16.362 Z-1.800 I3.638 J0.641 K0.000 F400.000
G3 X19.359 Y23.638 Z-1.800 I-0.641 J3.638 K0.000 F400.000
G0 Z5.000
G0 X18.941 Y26.004 Z5.000
G0 X18.941 Y26.004 Z3.000
G1 X18.941 Y26.004 Z-1.800 F400.000
G3 X21.059 Y13.996 Z-1.800 I1.059 J-6.004 K0.000 F400.000
G3 X18.941 Y26.004 Z-1.800 I-1.059 J6.004 K0.000 F400.000
G0 Z5.000
G0 X18.524 Y28.369 Z5.000
G0 X18.524 Y28.369 Z3.000
G1 X18.524 Y28.369 Z-1.800 F400.000
G3 X21.476 Y11.631 Z-1.800 I1.476 J-8.369 K0.000 F400.000
G3 X18.524 Y28.369 Z-1.800 I-1.476 J8.369 K0.000 F400.000
G0 Z5.000
G0 X19.906 Y20.533 Z5.000
G0 X19.906 Y20.533 Z3.000
G1 X19.906 Y20.533 Z-2.000 F400.000
G3 X20.094 Y19.467 Z-2.000 I0.094 J-0.533 K0.000 F400.000
G3 X19.906 Y20.533 Z-2.000 I-0.094 J0.533 K0.000 F400.000
G0 Z5.000
G0 X19.776 Y21.272 Z5.000
G0 X19.776 Y21.272 Z3.000
G1 X19.776 Y21.272 Z-2.000 F400.000
G3 X20.224 Y18.728 Z-2.000 I0.224 J-1.272 K0.000 F400.000
G3 X19.776 Y21.272 Z-2.000 I-0.224 J1.272 K0.000 F400.000
G0 Z5.000
G0 X19.359 Y23.638 Z5.000
G0 X19.359 Y23.638 Z3.000
G1 X19.359 Y23.638 Z-2.000 F400.000
G3 X16.362 Y19.359 Z-2.000 I0.641 J-3.638 K0.000 F400.000
G3 X20.641 Y16.362 Z-2.000 I3.638 J0.641 K0.000 F400.000
G3 X19.359 Y23.638 Z-2.000 I-0.641 J3.638 K0.000 F400.000
G0 Z5.000
G0 X18.941 Y26.004 Z5.000
G0 X18.941 Y26.004 Z3.000
G1 X18.941 Y26.004 Z-2.000 F400.000
G3 X21.059 Y13.996 Z-2.000 I1.059 J-6.004 K0.000 F400.000
G3 X18.941 Y26.004 Z-2.000 I-1.059 J6.004 K0.000 F400.000
G0 Z5.000
G0 X18.524 Y28.369 Z5.000
G0 X18.524 Y28.369 Z3.000
G1 X18.524 Y28.369 Z-2.000 F400.000
G3 X21.476 Y11.631 Z-2.000 I1.476 J-8.369 K0.000 F400.000
G3 X18.524 Y28.369 Z-2.000 I-1.476 J8.369 K0.000 F400.000
G0 Z5.000
G0 Z5.000
(Finish operation: Pocket_Shape001)
(Begin operation: Profile)
(Path: Profile)
(Profile)
(Compensated Tool Path. Diameter: 3.0)
G0 Z5.000
G0 X41.061 Y41.061
G0 Z3.000
G1 X41.061 Y41.061 Z-0.500 F400.000
G2 X41.500 Y40.000 Z-0.500 I-1.061 J-1.061 K0.000 F400.000
G1 X41.500 Y0.000 Z-0.500 F400.000
G2 X40.000 Y-1.500 Z-0.500 I-1.500 J0.000 K0.000 F400.000
G1 X0.000 Y-1.500 Z-0.500 F400.000
G2 X-1.500 Y0.000 Z-0.500 I0.000 J1.500 K0.000 F400.000
G1 X-1.500 Y40.000 Z-0.500 F400.000
G2 X0.000 Y41.500 Z-0.500 I1.500 J-0.000 K0.000 F400.000
G1 X40.000 Y41.500 Z-0.500 F400.000
G2 X41.061 Y41.061 Z-0.500 I-0.000 J-1.500 K0.000 F400.000
G1 X41.061 Y41.061 Z-1.000 F400.000
G2 X41.500 Y40.000 Z-1.000 I-1.061 J-1.061 K0.000 F400.000
G1 X41.500 Y0.000 Z-1.000 F400.000
G2 X40.000 Y-1.500 Z-1.000 I-1.500 J0.000 K0.000 F400.000
G1 X0.000 Y-1.500 Z-1.000 F400.000
G2 X-1.500 Y0.000 Z-1.000 I0.000 J1.500 K0.000 F400.000
G1 X-1.500 Y40.000 Z-1.000 F400.000
G2 X0.000 Y41.500 Z-1.000 I1.500 J-0.000 K0.000 F400.000
G1 X40.000 Y41.500 Z-1.000 F400.000
G2 X41.061 Y41.061 Z-1.000 I-0.000 J-1.500 K0.000 F400.000
G1 X41.061 Y41.061 Z-1.500 F400.000
G2 X41.500 Y40.000 Z-1.500 I-1.061 J-1.061 K0.000 F400.000
G1 X41.500 Y0.000 Z-1.500 F400.000
G2 X40.000 Y-1.500 Z-1.500 I-1.500 J0.000 K0.000 F400.000
G1 X0.000 Y-1.500 Z-1.500 F400.000
G2 X-1.500 Y0.000 Z-1.500 I0.000 J1.500 K0.000 F400.000
G1 X-1.500 Y40.000 Z-1.500 F400.000
G2 X0.000 Y41.500 Z-1.500 I1.500 J-0.000 K0.000 F400.000
G1 X40.000 Y41.500 Z-1.500 F400.000
G2 X41.061 Y41.061 Z-1.500 I-0.000 J-1.500 K0.000 F400.000
G1 X41.061 Y41.061 Z-2.000 F400.000
G2 X41.500 Y40.000 Z-2.000 I-1.061 J-1.061 K0.000 F400.000
G1 X41.500 Y0.000 Z-2.000 F400.000
G2 X40.000 Y-1.500 Z-2.000 I-1.500 J0.000 K0.000 F400.000
G1 X0.000 Y-1.500 Z-2.000 F400.000
G2 X-1.500 Y0.000 Z-2.000 I0.000 J1.500 K0.000 F400.000
G1 X-1.500 Y40.000 Z-2.000 F400.000
G2 X0.000 Y41.500 Z-2.000 I1.500 J-0.000 K0.000 F400.000
G1 X40.000 Y41.500 Z-2.000 F400.000
G2 X41.061 Y41.061 Z-2.000 I-0.000 J-1.500 K0.000 F400.000
G1 X41.061 Y41.061 Z-2.500 F400.000
G2 X41.500 Y40.000 Z-2.500 I-1.061 J-1.061 K0.000 F400.000
G1 X41.500 Y0.000 Z-2.500 F400.000
G2 X40.000 Y-1.500 Z-2.500 I-1.500 J0.000 K0.000 F400.000
G1 X0.000 Y-1.500 Z-2.500 F400.000
G2 X-1.500 Y0.000 Z-2.500 I0.000 J1.500 K0.000 F400.000
G1 X-1.500 Y40.000 Z-2.500 F400.000
G2 X0.000 Y41.500 Z-2.500 I1.500 J-0.000 K0.000 F400.000
G1 X40.000 Y41.500 Z-2.500 F400.000
G2 X41.061 Y41.061 Z-2.500 I-0.000 J-1.500 K0.000 F400.000
G1 X41.061 Y41.061 Z-3.000 F400.000
G2 X41.500 Y40.000 Z-3.000 I-1.061 J-1.061 K0.000 F400.000
G1 X41.500 Y0.000 Z-3.000 F400.000
G2 X40.000 Y-1.500 Z-3.000 I-1.500 J0.000 K0.000 F400.000
G1 X0.000 Y-1.500 Z-3.000 F400.000
G2 X-1.500 Y0.000 Z-3.000 I0.000 J1.500 K0.000 F400.000
G1 X-1.500 Y40.000 Z-3.000 F400.000
G2 X0.000 Y41.500 Z-3.000 I1.500 J-0.000 K0.000 F400.000
G1 X40.000 Y41.500 Z-3.000 F400.000
G2 X41.061 Y41.061 Z-3.000 I-0.000 J-1.500 K0.000 F400.000
G1 X41.061 Y41.061 Z-3.500 F400.000
G2 X41.500 Y40.000 Z-3.500 I-1.061 J-1.061 K0.000 F400.000
G1 X41.500 Y0.000 Z-3.500 F400.000
G2 X40.000 Y-1.500 Z-3.500 I-1.500 J0.000 K0.000 F400.000
G1 X0.000 Y-1.500 Z-3.500 F400.000
G2 X-1.500 Y0.000 Z-3.500 I0.000 J1.500 K0.000 F400.000
G1 X-1.500 Y40.000 Z-3.500 F400.000
G2 X0.000 Y41.500 Z-3.500 I1.500 J-0.000 K0.000 F400.000
G1 X40.000 Y41.500 Z-3.500 F400.000
G2 X41.061 Y41.061 Z-3.500 I-0.000 J-1.500 K0.000 F400.000
G1 X41.061 Y41.061 Z-4.000 F400.000
G2 X41.500 Y40.000 Z-4.000 I-1.061 J-1.061 K0.000 F400.000
G1 X41.500 Y0.000 Z-4.000 F400.000
G2 X40.000 Y-1.500 Z-4.000 I-1.500 J0.000 K0.000 F400.000
G1 X0.000 Y-1.500 Z-4.000 F400.000
G2 X-1.500 Y0.000 Z-4.000 I0.000 J1.500 K0.000 F400.000
G1 X-1.500 Y40.000 Z-4.000 F400.000
G2 X0.000 Y41.500 Z-4.000 I1.500 J-0.000 K0.000 F400.000
G1 X40.000 Y41.500 Z-4.000 F400.000
G2 X41.061 Y41.061 Z-4.000 I-0.000 J-1.500 K0.000 F400.000
G1 X41.061 Y41.061 Z-4.500 F400.000
G2 X41.500 Y40.000 Z-4.500 I-1.061 J-1.061 K0.000 F400.000
G1 X41.500 Y0.000 Z-4.500 F400.000
G2 X40.000 Y-1.500 Z-4.500 I-1.500 J0.000 K0.000 F400.000
G1 X0.000 Y-1.500 Z-4.500 F400.000
G2 X-1.500 Y0.000 Z-4.500 I0.000 J1.500 K0.000 F400.000
G1 X-1.500 Y40.000 Z-4.500 F400.000
G2 X0.000 Y41.500 Z-4.500 I1.500 J-0.000 K0.000 F400.000
G1 X40.000 Y41.500 Z-4.500 F400.000
G2 X41.061 Y41.061 Z-4.500 I-0.000 J-1.500 K0.000 F400.000
G1 X41.061 Y41.061 Z-5.000 F400.000
G2 X41.500 Y40.000 Z-5.000 I-1.061 J-1.061 K0.000 F400.000
G1 X41.500 Y0.000 Z-5.000 F400.000
G2 X40.000 Y-1.500 Z-5.000 I-1.500 J0.000 K0.000 F400.000
G1 X0.000 Y-1.500 Z-5.000 F400.000
G2 X-1.500 Y0.000 Z-5.000 I0.000 J1.500 K0.000 F400.000
G1 X-1.500 Y40.000 Z-5.000 F400.000
G2 X0.000 Y41.500 Z-5.000 I1.500 J-0.000 K0.000 F400.000
G1 X40.000 Y41.500 Z-5.000 F400.000
G2 X41.061 Y41.061 Z-5.000 I-0.000 J-1.500 K0.000 F400.000
G1 X41.061 Y41.061 Z-5.500 F400.000
G2 X41.500 Y40.000 Z-5.500 I-1.061 J-1.061 K0.000 F400.000
G1 X41.500 Y0.000 Z-5.500 F400.000
G2 X40.000 Y-1.500 Z-5.500 I-1.500 J0.000 K0.000 F400.000
G1 X0.000 Y-1.500 Z-5.500 F400.000
G2 X-1.500 Y0.000 Z-5.500 I0.000 J1.500 K0.000 F400.000
G1 X-1.500 Y40.000 Z-5.500 F400.000
G2 X0.000 Y41.500 Z-5.500 I1.500 J-0.000 K0.000 F400.000
G1 X40.000 Y41.500 Z-5.500 F400.000
G2 X41.061 Y41.061 Z-5.500 I-0.000 J-1.500 K0.000 F400.000
G1 X41.061 Y41.061 Z-6.000 F400.000
G2 X41.500 Y40.000 Z-6.000 I-1.061 J-1.061 K0.000 F400.000
G1 X41.500 Y0.000 Z-6.000 F400.000
G2 X40.000 Y-1.500 Z-6.000 I-1.500 J0.000 K0.000 F400.000
G1 X0.000 Y-1.500 Z-6.000 F400.000
G2 X-1.500 Y0.000 Z-6.000 I0.000 J1.500 K0.000 F400.000
G1 X-1.500 Y40.000 Z-6.000 F400.000
G2 X0.000 Y41.500 Z-6.000 I1.500 J-0.000 K0.000 F400.000
G1 X40.000 Y41.500 Z-6.000 F400.000
G2 X41.061 Y41.061 Z-6.000 I-0.000 J-1.500 K0.000 F400.000
G0 Z5.000
G0 Z5.000
(Finish operation: Profile)
(Begin postamble)
M5
G17 G90
M2
