(Exported by FreeCAD)
(Post Processor: grbl_post)
(Output Time:2025-07-17 23:37:14.468493)
(Begin preamble)
G17 G90
G21
(Begin operation: Fixture)
(Path: Fixture)
G54
(Finish operation: Fixture)
(Begin operation: 45degree_Vbit001)
(Path: 45degree_Vbit001)
(45degree_Vbit001)
(Begin toolchange)
( M6 T3 )
M3 S18000
(Finish operation: 45degree_Vbit001)
(Begin operation: Vcarve)
(Path: Vcarve)
(starting)
G0 Z3.000
G0 X7.312 Y-80.685 Z3.000
G1 X7.312 Y-80.685 Z0.049 F400.000
G1 X7.967 Y-81.353 Z-0.604 F400.000
G0 Z3.000
G0 X7.312 Y-81.898 Z3.000
G1 X7.312 Y-81.898 Z0.050 F400.000
G1 X7.967 Y-81.353 Z-0.605 F400.000
G1 X11.232 Y-81.682 Z-0.871 F400.000
G1 X11.597 Y-81.756 Z-0.978 F400.000
G1 X11.986 Y-81.915 Z-1.091 F400.000
G1 X12.239 Y-82.046 Z-1.217 F400.000
G1 X12.280 Y-82.133 Z-1.200 F400.000
G1 X12.283 Y-82.139 Z-1.199 F400.000
G1 X12.314 Y-82.210 Z-1.184 F400.000
G1 X12.459 Y-82.557 Z-1.119 F400.000
G1 X12.485 Y-82.621 Z-1.108 F400.000
G1 X12.625 Y-82.986 Z-1.052 F400.000
G1 X12.647 Y-83.043 Z-1.044 F400.000
G1 X12.670 Y-83.110 Z-1.036 F400.000
G1 X12.776 Y-83.428 Z-0.992 F400.000
G1 X12.798 Y-83.496 Z-0.982 F400.000
G1 X12.983 Y-84.125 Z-0.918 F400.000
G1 X13.038 Y-84.325 Z-0.893 F400.000
G1 X13.057 Y-84.402 Z-0.885 F400.000
G1 X13.235 Y-85.173 Z-0.825 F400.000
G1 X13.266 Y-85.317 Z-0.812 F400.000
G1 X13.278 Y-85.377 Z-0.805 F400.000
G1 X13.431 Y-86.249 Z-0.755 F400.000
G1 X13.446 Y-86.349 Z-0.748 F400.000
G1 X13.454 Y-86.403 Z-0.744 F400.000
G1 X13.570 Y-87.351 Z-0.706 F400.000
G1 X13.575 Y-87.398 Z-0.703 F400.000
G1 X13.580 Y-87.450 Z-0.701 F400.000
G1 X13.652 Y-88.470 Z-0.678 F400.000
G1 X13.653 Y-88.476 Z-0.676 F400.000
G1 X13.655 Y-88.515 Z-0.675 F400.000
G1 X13.679 Y-89.563 Z-0.668 F400.000
G1 X13.679 Y-89.602 Z-0.668 F400.000
G1 X13.679 Y-89.624 Z-0.669 F400.000
G1 X13.669 Y-90.145 Z-0.670 F400.000
G1 X13.668 Y-90.174 Z-0.669 F400.000
G1 X13.661 Y-90.348 Z-0.674 F400.000
G1 X13.641 Y-90.700 Z-0.676 F400.000
G1 X13.638 Y-90.734 Z-0.676 F400.000
G1 X13.612 Y-91.050 Z-0.686 F400.000
G1 X13.593 Y-91.245 Z-0.688 F400.000
G1 X13.589 Y-91.281 Z-0.688 F400.000
G1 X13.532 Y-91.727 Z-0.704 F400.000
G1 X13.525 Y-91.776 Z-0.704 F400.000
G1 X13.519 Y-91.813 Z-0.704 F400.000
G1 X13.437 Y-92.294 Z-0.724 F400.000
G1 X13.429 Y-92.336 Z-0.726 F400.000
G1 X13.420 Y-92.380 Z-0.729 F400.000
G1 X13.327 Y-92.802 Z-0.749 F400.000
G1 X13.317 Y-92.844 Z-0.750 F400.000
G1 X13.276 Y-93.005 Z-0.763 F400.000
G1 X13.196 Y-93.297 Z-0.778 F400.000
G1 X13.183 Y-93.343 Z-0.780 F400.000
G1 X13.103 Y-93.605 Z-0.803 F400.000
G1 X13.044 Y-93.783 Z-0.814 F400.000
G1 X13.027 Y-93.831 Z-0.816 F400.000
G1 X12.901 Y-94.177 Z-0.849 F400.000
G1 X12.870 Y-94.258 Z-0.854 F400.000
G1 X12.848 Y-94.310 Z-0.858 F400.000
G1 X12.672 Y-94.721 Z-0.900 F400.000
G1 X12.671 Y-94.724 Z-0.900 F400.000
G1 X12.645 Y-94.777 Z-0.904 F400.000
G1 X12.447 Y-95.179 Z-0.949 F400.000
G1 X12.418 Y-95.235 Z-0.955 F400.000
G1 X12.417 Y-95.237 Z-0.957 F400.000
G1 X12.196 Y-95.624 Z-1.003 F400.000
G1 X12.163 Y-95.681 Z-1.009 F400.000
G1 X12.137 Y-95.724 Z-1.017 F400.000
G1 X11.920 Y-96.058 Z-1.060 F400.000
G1 X11.882 Y-96.114 Z-1.067 F400.000
G1 X11.835 Y-96.182 Z-1.080 F400.000
G1 X11.618 Y-96.479 Z-1.121 F400.000
G1 X11.574 Y-96.537 Z-1.129 F400.000
G1 X11.514 Y-96.614 Z-1.144 F400.000
G1 X11.286 Y-96.889 Z-1.185 F400.000
G1 X11.237 Y-96.946 Z-1.193 F400.000
G1 X11.173 Y-97.019 Z-1.209 F400.000
G1 X10.925 Y-97.286 Z-1.251 F400.000
G1 X10.871 Y-97.342 Z-1.260 F400.000
G1 X10.814 Y-97.400 Z-1.273 F400.000
G1 X10.535 Y-97.667 Z-1.318 F400.000
G1 X10.478 Y-97.720 Z-1.328 F400.000
G1 X10.438 Y-97.757 Z-1.337 F400.000
G1 X10.120 Y-98.029 Z-1.386 F400.000
G1 X10.059 Y-98.079 Z-1.395 F400.000
G1 X10.045 Y-98.091 Z-1.399 F400.000
G1 X9.678 Y-98.371 Z-1.452 F400.000
G1 X9.638 Y-98.401 Z-1.458 F400.000
G1 X9.612 Y-98.419 Z-1.462 F400.000
G1 X9.222 Y-98.683 Z-1.517 F400.000
G1 X9.206 Y-98.693 Z-1.518 F400.000
G1 X9.137 Y-98.737 Z-1.525 F400.000
G1 X8.793 Y-98.943 Z-1.572 F400.000
G1 X8.709 Y-98.991 Z-1.580 F400.000
G1 X8.640 Y-99.028 Z-1.585 F400.000
G1 X8.355 Y-99.181 Z-1.622 F400.000
G1 X8.188 Y-99.264 Z-1.637 F400.000
G1 X8.117 Y-99.298 Z-1.642 F400.000
G1 X7.905 Y-99.397 Z-1.668 F400.000
G1 X7.641 Y-99.512 Z-1.689 F400.000
G1 X7.570 Y-99.542 Z-1.694 F400.000
G1 X7.441 Y-99.595 Z-1.709 F400.000
G1 X7.070 Y-99.734 Z-1.737 F400.000
G1 X7.000 Y-99.760 Z-1.741 F400.000
G1 X6.964 Y-99.772 Z-1.746 F400.000
G1 X6.477 Y-99.930 Z-1.779 F400.000
G1 X6.470 Y-99.932 Z-1.777 F400.000
G1 X6.407 Y-99.950 Z-1.780 F400.000
G1 X5.957 Y-100.073 Z-1.809 F400.000
G1 X5.863 Y-100.096 Z-1.813 F400.000
G1 X5.794 Y-100.112 Z-1.814 F400.000
G1 X5.425 Y-100.196 Z-1.835 F400.000
G1 X5.226 Y-100.236 Z-1.841 F400.000
G1 X5.161 Y-100.249 Z-1.841 F400.000
G1 X4.875 Y-100.301 Z-1.856 F400.000
G1 X4.573 Y-100.349 Z-1.863 F400.000
G1 X4.479 Y-100.363 Z-1.864 F400.000
G1 X4.302 Y-100.387 Z-1.875 F400.000
G1 X3.707 Y-100.454 Z-1.889 F400.000
G1 X3.237 Y-100.496 Z-1.892 F400.000
G1 X3.122 Y-100.505 Z-1.892 F400.000
G1 X3.090 Y-100.507 Z-1.895 F400.000
G1 X2.447 Y-100.534 Z-1.904 F400.000
G1 X1.798 Y-100.548 Z-1.901 F400.000
G1 X1.780 Y-100.550 Z-1.899 F400.000
G1 X1.699 Y-100.549 Z-1.899 F400.000
G1 X1.050 Y-100.535 Z-1.903 F400.000
G1 X0.345 Y-100.509 Z-1.894 F400.000
G1 X0.266 Y-100.505 Z-1.891 F400.000
G1 X0.163 Y-100.499 Z-1.888 F400.000
G1 X-0.330 Y-100.458 Z-1.887 F400.000
G1 X-0.979 Y-100.393 Z-1.873 F400.000
G1 X-1.170 Y-100.370 Z-1.864 F400.000
G1 X-1.257 Y-100.359 Z-1.860 F400.000
G1 X-1.602 Y-100.309 Z-1.854 F400.000
G1 X-1.887 Y-100.262 Z-1.842 F400.000
G1 X-1.944 Y-100.252 Z-1.839 F400.000
G1 X-2.197 Y-100.206 Z-1.834 F400.000
G1 X-2.548 Y-100.134 Z-1.817 F400.000
G1 X-2.614 Y-100.120 Z-1.813 F400.000
G1 X-2.769 Y-100.085 Z-1.809 F400.000
G1 X-3.191 Y-99.980 Z-1.786 F400.000
G1 X-3.257 Y-99.963 Z-1.781 F400.000
G1 X-3.316 Y-99.947 Z-1.780 F400.000
G1 X-3.808 Y-99.802 Z-1.750 F400.000
G1 X-3.840 Y-99.792 Z-1.746 F400.000
G1 X-3.876 Y-99.780 Z-1.744 F400.000
G1 X-4.342 Y-99.619 Z-1.712 F400.000
G1 X-4.401 Y-99.597 Z-1.706 F400.000
G1 X-4.475 Y-99.568 Z-1.699 F400.000
G1 X-4.822 Y-99.428 Z-1.673 F400.000
G1 X-4.971 Y-99.364 Z-1.657 F400.000
G1 X-5.040 Y-99.333 Z-1.649 F400.000
G1 X-5.284 Y-99.220 Z-1.630 F400.000
G1 X-5.509 Y-99.109 Z-1.603 F400.000
G1 X-5.583 Y-99.071 Z-1.594 F400.000
G1 X-5.728 Y-98.994 Z-1.582 F400.000
G1 X-6.025 Y-98.826 Z-1.544 F400.000
G1 X-6.096 Y-98.785 Z-1.535 F400.000
G1 X-6.157 Y-98.748 Z-1.530 F400.000
G1 X-6.510 Y-98.521 Z-1.482 F400.000
G1 X-6.572 Y-98.480 Z-1.473 F400.000
G1 X-6.581 Y-98.473 Z-1.472 F400.000
G1 X-6.966 Y-98.193 Z-1.417 F400.000
G1 X-6.971 Y-98.189 Z-1.415 F400.000
G1 X-7.035 Y-98.138 Z-1.404 F400.000
G1 X-7.356 Y-97.873 Z-1.357 F400.000
G1 X-7.393 Y-97.840 Z-1.349 F400.000
G1 X-7.454 Y-97.785 Z-1.336 F400.000
G1 X-7.725 Y-97.533 Z-1.294 F400.000
G1 X-7.786 Y-97.473 Z-1.281 F400.000
G1 X-7.848 Y-97.410 Z-1.268 F400.000
G1 X-8.079 Y-97.165 Z-1.230 F400.000
G1 X-8.154 Y-97.081 Z-1.213 F400.000
G1 X-8.208 Y-97.018 Z-1.201 F400.000
G1 X-8.416 Y-96.768 Z-1.165 F400.000
G1 X-8.490 Y-96.674 Z-1.148 F400.000
G1 X-8.540 Y-96.608 Z-1.137 F400.000
G1 X-8.735 Y-96.341 Z-1.101 F400.000
G1 X-8.800 Y-96.247 Z-1.086 F400.000
G1 X-8.844 Y-96.180 Z-1.075 F400.000
G1 X-9.035 Y-95.881 Z-1.040 F400.000
G1 X-9.081 Y-95.803 Z-1.028 F400.000
G1 X-9.116 Y-95.744 Z-1.018 F400.000
G1 X-9.313 Y-95.389 Z-0.980 F400.000
G1 X-9.332 Y-95.352 Z-0.975 F400.000
G1 X-9.363 Y-95.291 Z-0.966 F400.000
G1 X-9.559 Y-94.882 Z-0.925 F400.000
G1 X-9.568 Y-94.864 Z-0.923 F400.000
G1 X-9.585 Y-94.824 Z-0.919 F400.000
G1 X-9.759 Y-94.399 Z-0.881 F400.000
G1 X-9.781 Y-94.346 Z-0.875 F400.000
G1 X-9.795 Y-94.307 Z-0.874 F400.000
G1 X-9.935 Y-93.904 Z-0.841 F400.000
G1 X-9.951 Y-93.856 Z-0.836 F400.000
G1 X-9.995 Y-93.716 Z-0.831 F400.000
G1 X-10.087 Y-93.398 Z-0.807 F400.000
G1 X-10.101 Y-93.349 Z-0.803 F400.000
G1 X-10.167 Y-93.094 Z-0.792 F400.000
G1 X-10.219 Y-92.874 Z-0.778 F400.000
G1 X-10.229 Y-92.831 Z-0.774 F400.000
G1 X-10.309 Y-92.444 Z-0.760 F400.000
G1 X-10.329 Y-92.337 Z-0.754 F400.000
G1 X-10.336 Y-92.299 Z-0.751 F400.000
G1 X-10.418 Y-91.787 Z-0.735 F400.000
G1 X-10.422 Y-91.762 Z-0.733 F400.000
G1 X-10.424 Y-91.749 Z-0.733 F400.000
G1 X-10.486 Y-91.218 Z-0.718 F400.000
G1 X-10.490 Y-91.184 Z-0.716 F400.000
G1 X-10.502 Y-91.052 Z-0.717 F400.000
G1 X-10.533 Y-90.633 Z-0.706 F400.000
G1 X-10.536 Y-90.602 Z-0.705 F400.000
G1 X-10.551 Y-90.314 Z-0.705 F400.000
G1 X-10.561 Y-90.032 Z-0.699 F400.000
G1 X-10.563 Y-90.003 Z-0.698 F400.000
G1 X-10.570 Y-89.549 Z-0.698 F400.000
G1 X-10.570 Y-89.414 Z-0.696 F400.000
G1 X-10.570 Y-89.377 Z-0.695 F400.000
G1 X-10.552 Y-88.588 Z-0.702 F400.000
G1 X-10.548 Y-88.485 Z-0.701 F400.000
G1 X-10.546 Y-88.438 Z-0.701 F400.000
G1 X-10.488 Y-87.609 Z-0.722 F400.000
G1 X-10.483 Y-87.553 Z-0.722 F400.000
G1 X-10.479 Y-87.505 Z-0.723 F400.000
G1 X-10.377 Y-86.624 Z-0.761 F400.000
G1 X-10.376 Y-86.613 Z-0.760 F400.000
G1 X-10.370 Y-86.574 Z-0.762 F400.000
G1 X-10.229 Y-85.695 Z-0.816 F400.000
G1 X-10.219 Y-85.640 Z-0.820 F400.000
G1 X-10.212 Y-85.604 Z-0.823 F400.000
G1 X-10.041 Y-84.783 Z-0.889 F400.000
G1 X-10.026 Y-84.720 Z-0.894 F400.000
G1 X-9.993 Y-84.581 Z-0.911 F400.000
G1 X-9.818 Y-83.905 Z-0.981 F400.000
G1 X-9.797 Y-83.828 Z-0.990 F400.000
G1 X-9.714 Y-83.550 Z-1.031 F400.000
G1 X-9.558 Y-83.052 Z-1.097 F400.000
G1 X-9.529 Y-82.962 Z-1.110 F400.000
G1 X-9.368 Y-82.513 Z-1.190 F400.000
G1 X-9.329 Y-82.407 Z-1.207 F400.000
G1 X-10.361 Y-81.171 Z0.049 F400.000
G0 Z3.000
G0 X-9.329 Y-82.407 Z3.000
G1 X-9.329 Y-82.407 Z-1.207 F400.000
G1 X-9.135 Y-82.291 Z-1.095 F400.000
G1 X-8.761 Y-82.108 Z-0.973 F400.000
G1 X-8.282 Y-81.996 Z-0.817 F400.000
G1 X-5.529 Y-81.733 Z-0.610 F400.000
G1 X-4.869 Y-82.290 Z0.050 F400.000
G0 Z3.000
G0 X-5.529 Y-81.733 Z3.000
G1 X-5.529 Y-81.733 Z-0.610 F400.000
G1 X-4.869 Y-81.059 Z0.050 F400.000
G0 Z3.000
G0 X12.239 Y-82.046 Z3.000
G1 X12.239 Y-82.046 Z-1.217 F400.000
G1 X13.217 Y-80.797 Z0.049 F400.000
G0 Z3.000
G0 X-3.242 Y-69.181 Z3.000
G1 X-3.242 Y-69.181 Z-0.692 F400.000
G1 X-3.218 Y-69.771 Z-0.695 F400.000
G1 X-3.213 Y-69.846 Z-0.697 F400.000
G1 X-3.204 Y-69.940 Z-0.702 F400.000
G1 X-3.151 Y-70.374 Z-0.714 F400.000
G1 X-3.148 Y-70.397 Z-0.714 F400.000
G1 X-3.133 Y-70.484 Z-0.717 F400.000
G1 X-3.070 Y-70.792 Z-0.736 F400.000
G1 X-3.023 Y-70.997 Z-0.744 F400.000
G1 X-2.998 Y-71.094 Z-0.751 F400.000
G1 X-2.969 Y-71.190 Z-0.761 F400.000
G1 X-2.848 Y-71.567 Z-0.791 F400.000
G1 X-2.846 Y-71.573 Z-0.792 F400.000
G1 X-2.804 Y-71.681 Z-0.802 F400.000
G1 X-2.702 Y-71.919 Z-0.833 F400.000
G1 X-2.605 Y-72.129 Z-0.855 F400.000
G1 X-2.545 Y-72.247 Z-0.872 F400.000
G1 X-2.544 Y-72.250 Z-0.872 F400.000
G1 X-2.364 Y-72.555 Z-0.920 F400.000
G1 X-2.295 Y-72.664 Z-0.933 F400.000
G1 X-2.217 Y-72.778 Z-0.953 F400.000
G1 X-2.173 Y-72.839 Z-0.966 F400.000
G1 X-1.969 Y-73.102 Z-1.016 F400.000
G1 X-1.915 Y-73.167 Z-1.026 F400.000
G1 X-1.814 Y-73.281 Z-1.048 F400.000
G1 X-1.755 Y-73.343 Z-1.064 F400.000
G1 X-1.529 Y-73.566 Z-1.112 F400.000
G1 X-1.452 Y-73.637 Z-1.125 F400.000
G1 X-1.335 Y-73.739 Z-1.149 F400.000
G1 X-1.295 Y-73.771 Z-1.158 F400.000
G1 X-1.050 Y-73.957 Z-1.206 F400.000
G1 X-0.899 Y-74.064 Z-1.228 F400.000
G1 X-0.797 Y-74.133 Z-1.246 F400.000
G1 X-0.777 Y-74.145 Z-1.249 F400.000
G1 X-0.524 Y-74.294 Z-1.292 F400.000
G1 X-0.259 Y-74.440 Z-1.328 F400.000
G1 X-0.247 Y-74.446 Z-1.330 F400.000
G1 X-0.144 Y-74.496 Z-1.343 F400.000
G1 X0.044 Y-74.582 Z-1.371 F400.000
G1 X0.346 Y-74.710 Z-1.407 F400.000
G1 X0.459 Y-74.755 Z-1.418 F400.000
G1 X0.567 Y-74.794 Z-1.429 F400.000
G1 X0.659 Y-74.827 Z-1.441 F400.000
G1 X0.986 Y-74.932 Z-1.474 F400.000
G1 X1.254 Y-75.011 Z-1.494 F400.000
G1 X1.325 Y-75.031 Z-1.500 F400.000
G1 X1.349 Y-75.036 Z-1.502 F400.000
G1 X1.667 Y-75.111 Z-1.528 F400.000
G1 X2.120 Y-75.202 Z-1.549 F400.000
G1 X2.201 Y-75.218 Z-1.554 F400.000
G1 X2.446 Y-75.260 Z-1.572 F400.000
G1 X3.051 Y-75.341 Z-1.592 F400.000
G1 X3.126 Y-75.350 Z-1.595 F400.000
G1 X3.276 Y-75.367 Z-1.604 F400.000
G1 X4.056 Y-75.424 Z-1.618 F400.000
G1 X4.119 Y-75.428 Z-1.620 F400.000
G1 X4.178 Y-75.432 Z-1.622 F400.000
G1 X5.126 Y-75.454 Z-1.629 F400.000
G1 X5.154 Y-75.454 Z-1.629 F400.000
G1 X5.182 Y-75.454 Z-1.629 F400.000
G1 X6.145 Y-75.431 Z-1.623 F400.000
G1 X6.204 Y-75.428 Z-1.621 F400.000
G1 X6.268 Y-75.425 Z-1.619 F400.000
G1 X7.062 Y-75.366 Z-1.604 F400.000
G1 X7.211 Y-75.350 Z-1.596 F400.000
G1 X7.284 Y-75.341 Z-1.593 F400.000
G1 X7.904 Y-75.259 Z-1.573 F400.000
G1 X8.147 Y-75.217 Z-1.555 F400.000
G1 X8.230 Y-75.202 Z-1.550 F400.000
G1 X8.694 Y-75.108 Z-1.529 F400.000
G1 X9.013 Y-75.033 Z-1.504 F400.000
G1 X9.040 Y-75.027 Z-1.502 F400.000
G1 X9.108 Y-75.008 Z-1.496 F400.000
G1 X9.385 Y-74.927 Z-1.476 F400.000
G1 X9.715 Y-74.821 Z-1.444 F400.000
G1 X9.805 Y-74.790 Z-1.432 F400.000
G1 X9.909 Y-74.752 Z-1.421 F400.000
G1 X10.032 Y-74.704 Z-1.411 F400.000
G1 X10.336 Y-74.575 Z-1.375 F400.000
G1 X10.523 Y-74.491 Z-1.348 F400.000
G1 X10.630 Y-74.439 Z-1.334 F400.000
G1 X10.642 Y-74.433 Z-1.333 F400.000
G1 X10.909 Y-74.286 Z-1.297 F400.000
G1 X11.169 Y-74.133 Z-1.253 F400.000
G1 X11.183 Y-74.126 Z-1.251 F400.000
G1 X11.291 Y-74.054 Z-1.232 F400.000
G1 X11.439 Y-73.948 Z-1.211 F400.000
G1 X11.686 Y-73.762 Z-1.164 F400.000
G1 X11.733 Y-73.724 Z-1.154 F400.000
G1 X11.850 Y-73.625 Z-1.131 F400.000
G1 X11.922 Y-73.557 Z-1.119 F400.000
G1 X12.148 Y-73.337 Z-1.073 F400.000
G1 X12.219 Y-73.264 Z-1.054 F400.000
G1 X12.317 Y-73.155 Z-1.033 F400.000
G1 X12.363 Y-73.101 Z-1.025 F400.000
G1 X12.566 Y-72.845 Z-0.978 F400.000
G1 X12.625 Y-72.764 Z-0.961 F400.000
G1 X12.706 Y-72.649 Z-0.941 F400.000
G1 X12.757 Y-72.568 Z-0.931 F400.000
G1 X12.935 Y-72.272 Z-0.885 F400.000
G1 X12.959 Y-72.230 Z-0.877 F400.000
G1 X13.019 Y-72.114 Z-0.861 F400.000
G1 X13.094 Y-71.954 Z-0.844 F400.000
G1 X13.221 Y-71.666 Z-0.807 F400.000
G1 X13.243 Y-71.615 Z-0.801 F400.000
G1 X13.263 Y-71.558 Z-0.795 F400.000
G1 X13.364 Y-71.252 Z-0.770 F400.000
G1 X13.416 Y-71.081 Z-0.752 F400.000
G1 X13.443 Y-70.982 Z-0.745 F400.000
G1 X13.468 Y-70.871 Z-0.741 F400.000
G1 X13.552 Y-70.474 Z-0.716 F400.000
G1 X13.554 Y-70.467 Z-0.716 F400.000
G1 X13.567 Y-70.386 Z-0.711 F400.000
G1 X13.609 Y-70.053 Z-0.703 F400.000
G1 X13.629 Y-69.841 Z-0.691 F400.000
G1 X13.635 Y-69.763 Z-0.689 F400.000
G1 X13.659 Y-69.181 Z-0.686 F400.000
G1 X13.660 Y-69.146 Z-0.686 F400.000
G1 X13.660 Y-69.112 Z-0.686 F400.000
G1 X13.634 Y-68.516 Z-0.690 F400.000
G1 X13.629 Y-68.438 Z-0.692 F400.000
G1 X13.607 Y-68.211 Z-0.705 F400.000
G1 X13.562 Y-67.879 Z-0.711 F400.000
G1 X13.548 Y-67.791 Z-0.716 F400.000
G1 X13.460 Y-67.342 Z-0.751 F400.000
G1 X13.442 Y-67.263 Z-0.755 F400.000
G1 X13.416 Y-67.164 Z-0.763 F400.000
G1 X13.353 Y-66.953 Z-0.786 F400.000
G1 X13.261 Y-66.668 Z-0.811 F400.000
G1 X13.228 Y-66.577 Z-0.822 F400.000
G1 X13.220 Y-66.557 Z-0.825 F400.000
G1 X13.077 Y-66.225 Z-0.870 F400.000
G1 X13.015 Y-66.090 Z-0.885 F400.000
G1 X12.956 Y-65.973 Z-0.903 F400.000
G1 X12.914 Y-65.895 Z-0.918 F400.000
G1 X12.735 Y-65.588 Z-0.968 F400.000
G1 X12.698 Y-65.530 Z-0.975 F400.000
G1 X12.619 Y-65.412 Z-0.996 F400.000
G1 X12.542 Y-65.305 Z-1.020 F400.000
G1 X12.341 Y-65.042 Z-1.069 F400.000
G1 X12.303 Y-64.996 Z-1.076 F400.000
G1 X12.206 Y-64.885 Z-1.099 F400.000
G1 X12.127 Y-64.799 Z-1.121 F400.000
G1 X11.906 Y-64.575 Z-1.168 F400.000
G1 X11.827 Y-64.500 Z-1.182 F400.000
G1 X11.713 Y-64.398 Z-1.205 F400.000
G1 X11.676 Y-64.367 Z-1.214 F400.000
G1 X11.436 Y-64.178 Z-1.260 F400.000
G1 X11.260 Y-64.047 Z-1.287 F400.000
G1 X11.191 Y-63.998 Z-1.298 F400.000
G1 X11.137 Y-63.964 Z-1.307 F400.000
G1 X10.930 Y-63.837 Z-1.342 F400.000
G1 X10.661 Y-63.683 Z-1.377 F400.000
G1 X10.603 Y-63.651 Z-1.383 F400.000
G1 X10.480 Y-63.589 Z-1.398 F400.000
G1 X10.379 Y-63.542 Z-1.412 F400.000
G1 X10.083 Y-63.411 Z-1.446 F400.000
G1 X9.864 Y-63.322 Z-1.463 F400.000
G1 X9.774 Y-63.287 Z-1.472 F400.000
G1 X9.753 Y-63.280 Z-1.474 F400.000
G1 X9.447 Y-63.177 Z-1.502 F400.000
G1 X9.107 Y-63.074 Z-1.525 F400.000
G1 X9.059 Y-63.061 Z-1.527 F400.000
G1 X8.957 Y-63.034 Z-1.532 F400.000
G1 X8.761 Y-62.986 Z-1.547 F400.000
G1 X8.185 Y-62.866 Z-1.570 F400.000
G1 X8.093 Y-62.848 Z-1.575 F400.000
G1 X7.966 Y-62.826 Z-1.584 F400.000
G1 X7.247 Y-62.727 Z-1.603 F400.000
G1 X7.167 Y-62.718 Z-1.606 F400.000
G1 X7.111 Y-62.711 Z-1.609 F400.000
G1 X6.247 Y-62.645 Z-1.622 F400.000
G1 X6.178 Y-62.641 Z-1.624 F400.000
G1 X6.174 Y-62.641 Z-1.624 F400.000
G1 X5.186 Y-62.617 Z-1.629 F400.000
G1 X5.154 Y-62.616 Z-1.629 F400.000
G1 X5.121 Y-62.617 Z-1.629 F400.000
G1 X4.156 Y-62.640 Z-1.624 F400.000
G1 X4.148 Y-62.640 Z-1.624 F400.000
G1 X4.079 Y-62.645 Z-1.622 F400.000
G1 X3.238 Y-62.710 Z-1.609 F400.000
G1 X3.176 Y-62.717 Z-1.606 F400.000
G1 X3.096 Y-62.727 Z-1.603 F400.000
G1 X2.397 Y-62.823 Z-1.583 F400.000
G1 X2.264 Y-62.847 Z-1.574 F400.000
G1 X2.175 Y-62.864 Z-1.569 F400.000
G1 X1.614 Y-62.981 Z-1.547 F400.000
G1 X1.416 Y-63.029 Z-1.532 F400.000
G1 X1.312 Y-63.057 Z-1.526 F400.000
G1 X1.276 Y-63.066 Z-1.525 F400.000
G1 X0.938 Y-63.170 Z-1.502 F400.000
G1 X0.628 Y-63.274 Z-1.473 F400.000
G1 X0.616 Y-63.277 Z-1.472 F400.000
G1 X0.517 Y-63.316 Z-1.462 F400.000
G1 X0.308 Y-63.401 Z-1.445 F400.000
G1 X0.015 Y-63.530 Z-1.413 F400.000
G1 X-0.089 Y-63.580 Z-1.398 F400.000
G1 X-0.209 Y-63.640 Z-1.383 F400.000
G1 X-0.266 Y-63.670 Z-1.378 F400.000
G1 X-0.534 Y-63.823 Z-1.343 F400.000
G1 X-0.736 Y-63.946 Z-1.309 F400.000
G1 X-0.794 Y-63.983 Z-1.300 F400.000
G1 X-0.860 Y-64.030 Z-1.289 F400.000
G1 X-1.038 Y-64.160 Z-1.263 F400.000
G1 X-1.279 Y-64.350 Z-1.216 F400.000
G1 X-1.309 Y-64.375 Z-1.209 F400.000
G1 X-1.425 Y-64.478 Z-1.186 F400.000
G1 X-1.507 Y-64.555 Z-1.173 F400.000
G1 X-1.725 Y-64.775 Z-1.126 F400.000
G1 X-1.802 Y-64.857 Z-1.106 F400.000
G1 X-1.903 Y-64.973 Z-1.083 F400.000
G1 X-1.935 Y-65.012 Z-1.077 F400.000
G1 X-2.134 Y-65.271 Z-1.029 F400.000
G1 X-2.216 Y-65.384 Z-1.005 F400.000
G1 X-2.295 Y-65.502 Z-0.985 F400.000
G1 X-2.324 Y-65.548 Z-0.979 F400.000
G1 X-2.499 Y-65.846 Z-0.933 F400.000
G1 X-2.552 Y-65.943 Z-0.915 F400.000
G1 X-2.613 Y-66.065 Z-0.897 F400.000
G1 X-2.660 Y-66.166 Z-0.887 F400.000
G1 X-2.806 Y-66.507 Z-0.842 F400.000
G1 X-2.816 Y-66.533 Z-0.838 F400.000
G1 X-2.856 Y-66.643 Z-0.825 F400.000
G1 X-2.930 Y-66.872 Z-0.806 F400.000
G1 X-3.010 Y-67.141 Z-0.777 F400.000
G1 X-3.038 Y-67.244 Z-0.770 F400.000
G1 X-3.038 Y-67.248 Z-0.770 F400.000
G1 X-3.141 Y-67.776 Z-0.730 F400.000
G1 X-3.156 Y-67.864 Z-0.726 F400.000
G1 X-3.186 Y-68.090 Z-0.723 F400.000
G1 X-3.217 Y-68.430 Z-0.703 F400.000
G1 X-3.223 Y-68.508 Z-0.701 F400.000
G1 X-3.243 Y-68.998 Z-0.699 F400.000
G1 X-3.244 Y-69.113 Z-0.694 F400.000
G1 X-3.243 Y-69.181 Z-0.692 F400.000
G0 Z3.000
G0 X-1.948 Y-47.520 Z3.000
G1 X-1.948 Y-47.520 Z0.050 F400.000
G1 X-2.732 Y-48.303 Z-0.733 F400.000
G0 Z3.000
G0 X-3.515 Y-47.520 Z3.000
G1 X-3.515 Y-47.520 Z0.050 F400.000
G1 X-2.732 Y-48.303 Z-0.733 F400.000
G1 X-2.732 Y-52.185 Z-0.733 F400.000
G1 X-2.732 Y-53.733 Z-1.685 F400.000
G1 X-2.769 Y-53.752 Z-1.686 F400.000
G0 Z3.000
G0 X-2.732 Y-53.733 Z3.000
G1 X-2.732 Y-53.733 Z-1.685 F400.000
G1 X-1.948 Y-53.733 Z-1.498 F400.000
G1 X12.452 Y-53.733 Z-1.498 F400.000
G1 X12.544 Y-53.641 Z-1.406 F400.000
G1 X12.871 Y-53.266 Z-1.203 F400.000
G1 X13.092 Y-52.910 Z-1.011 F400.000
G1 X13.221 Y-52.570 Z-0.827 F400.000
G1 X13.268 Y-52.303 Z-0.682 F400.000
G1 X13.546 Y-48.851 Z-0.404 F400.000
G1 X13.160 Y-48.397 Z0.050 F400.000
G0 Z3.000
G0 X13.546 Y-48.851 Z3.000
G1 X13.546 Y-48.851 Z-0.404 F400.000
G1 X14.000 Y-48.397 Z0.050 F400.000
G0 Z3.000
G0 X12.452 Y-53.733 Z3.000
G1 X12.452 Y-53.733 Z-1.498 F400.000
G1 X12.544 Y-53.826 Z-1.406 F400.000
G1 X12.871 Y-54.201 Z-1.197 F400.000
G1 X13.091 Y-54.556 Z-0.998 F400.000
G1 X13.221 Y-54.896 Z-0.808 F400.000
G1 X13.262 Y-55.111 Z-0.688 F400.000
G1 X13.531 Y-57.407 Z-0.419 F400.000
G0 Z3.000
G0 X13.160 Y-57.876 Z3.000
G1 X13.160 Y-57.876 Z0.050 F400.000
G1 X13.531 Y-57.407 Z-0.419 F400.000
G1 X14.000 Y-57.876 Z0.050 F400.000
G0 Z3.000
G0 X-1.948 Y-58.305 Z3.000
G1 X-1.948 Y-58.305 Z0.049 F400.000
G1 X-2.459 Y-57.794 Z-0.462 F400.000
G0 Z3.000
G0 X-2.862 Y-58.305 Z3.000
G1 X-2.862 Y-58.305 Z0.049 F400.000
G1 X-2.459 Y-57.794 Z-0.462 F400.000
G1 X-2.757 Y-55.282 Z-0.760 F400.000
G1 X-2.769 Y-55.084 Z-0.794 F400.000
G1 X-2.769 Y-53.752 Z-1.687 F400.000
G1 X-3.515 Y-53.734 Z-1.500 F400.000
G1 X-3.590 Y-53.734 Z-1.499 F400.000
G1 X-4.805 Y-53.733 Z-1.499 F400.000
G1 X-5.688 Y-53.722 Z-1.488 F400.000
G1 X-6.436 Y-53.692 Z-1.458 F400.000
G1 X-6.471 Y-53.691 Z-1.456 F400.000
G1 X-6.491 Y-53.689 Z-1.456 F400.000
G1 X-7.233 Y-53.627 Z-1.411 F400.000
G1 X-7.797 Y-53.561 Z-1.357 F400.000
G1 X-7.854 Y-53.553 Z-1.351 F400.000
G1 X-7.919 Y-53.544 Z-1.347 F400.000
G1 X-8.427 Y-53.453 Z-1.289 F400.000
G1 X-8.479 Y-53.443 Z-1.283 F400.000
G1 X-8.552 Y-53.428 Z-1.277 F400.000
G1 X-8.992 Y-53.320 Z-1.214 F400.000
G1 X-9.044 Y-53.307 Z-1.206 F400.000
G1 X-9.138 Y-53.282 Z-1.196 F400.000
G1 X-9.496 Y-53.167 Z-1.135 F400.000
G1 X-9.559 Y-53.146 Z-1.123 F400.000
G1 X-9.680 Y-53.103 Z-1.107 F400.000
G1 X-9.951 Y-52.992 Z-1.052 F400.000
G1 X-10.028 Y-52.958 Z-1.037 F400.000
G1 X-10.184 Y-52.887 Z-1.012 F400.000
G1 X-10.358 Y-52.796 Z-0.972 F400.000
G1 X-10.442 Y-52.750 Z-0.953 F400.000
G1 X-10.647 Y-52.629 Z-0.917 F400.000
G1 X-10.713 Y-52.585 Z-0.900 F400.000
G1 X-10.808 Y-52.518 Z-0.878 F400.000
G1 X-11.033 Y-52.347 Z-0.835 F400.000
G1 X-11.060 Y-52.326 Z-0.829 F400.000
G1 X-11.121 Y-52.268 Z-0.814 F400.000
G1 X-11.311 Y-52.082 Z-0.775 F400.000
G1 X-11.393 Y-51.995 Z-0.760 F400.000
G1 X-11.414 Y-51.971 Z-0.758 F400.000
G1 X-11.549 Y-51.796 Z-0.727 F400.000
G1 X-11.621 Y-51.696 Z-0.714 F400.000
G1 X-11.707 Y-51.563 Z-0.705 F400.000
G1 X-11.750 Y-51.486 Z-0.694 F400.000
G1 X-11.804 Y-51.383 Z-0.682 F400.000
G1 X-11.908 Y-51.158 Z-0.671 F400.000
G1 X-11.934 Y-51.102 Z-0.669 F400.000
G1 X-11.949 Y-51.055 Z-0.666 F400.000
G1 X-12.023 Y-50.812 Z-0.660 F400.000
G1 X-12.049 Y-50.714 Z-0.659 F400.000
G1 X-12.079 Y-50.587 Z-0.666 F400.000
G1 X-12.102 Y-50.454 Z-0.663 F400.000
G1 X-12.114 Y-50.362 Z-0.664 F400.000
G1 X-12.144 Y-50.080 Z-0.678 F400.000
G1 X-12.149 Y-50.025 Z-0.681 F400.000
G1 X-12.149 Y-49.998 Z-0.682 F400.000
G1 X-12.147 Y-49.565 Z-0.706 F400.000
G1 X-12.144 Y-49.470 Z-0.713 F400.000
G1 X-12.140 Y-49.417 Z-0.720 F400.000
G1 X-12.103 Y-49.065 Z-0.746 F400.000
G1 X-12.086 Y-48.950 Z-0.759 F400.000
G1 X-12.054 Y-48.770 Z-0.786 F400.000
G1 X-12.011 Y-48.568 Z-0.809 F400.000
G1 X-11.979 Y-48.441 Z-0.828 F400.000
G1 X-11.896 Y-48.160 Z-0.883 F400.000
G1 X-11.868 Y-48.076 Z-0.897 F400.000
G1 X-11.741 Y-47.778 Z-0.973 F400.000
G1 X-11.938 Y-47.544 Z-0.739 F400.000
G1 X-12.556 Y-46.755 Z0.050 F400.000
G0 Z3.000
G0 X-11.741 Y-47.778 Z3.000
G1 X-11.741 Y-47.778 Z-0.973 F400.000
G1 X-11.337 Y-47.660 Z-0.855 F400.000
G1 X-9.268 Y-47.293 Z-0.488 F400.000
G1 X-8.730 Y-47.669 Z0.049 F400.000
G0 Z3.000
G0 X-9.268 Y-47.293 Z3.000
G1 X-9.268 Y-47.293 Z-0.488 F400.000
G1 X-8.730 Y-46.755 Z0.050 F400.000
G0 Z3.000
G0 X-1.948 Y-35.497 Z3.000
G1 X-1.948 Y-35.497 Z0.050 F400.000
G1 X-2.732 Y-36.281 Z-0.733 F400.000
G0 Z3.000
G0 X-3.515 Y-35.497 Z3.000
G1 X-3.515 Y-35.497 Z0.049 F400.000
G1 X-2.732 Y-36.281 Z-0.733 F400.000
G1 X-2.732 Y-40.162 Z-0.733 F400.000
G1 X-2.732 Y-41.711 Z-1.685 F400.000
G1 X-2.769 Y-41.730 Z-1.687 F400.000
G0 Z3.000
G0 X-2.732 Y-41.711 Z3.000
G1 X-2.732 Y-41.711 Z-1.685 F400.000
G1 X-1.948 Y-41.711 Z-1.498 F400.000
G1 X12.451 Y-41.711 Z-1.498 F400.000
G1 X12.544 Y-41.618 Z-1.405 F400.000
G1 X12.871 Y-41.243 Z-1.202 F400.000
G1 X13.092 Y-40.887 Z-1.010 F400.000
G1 X13.221 Y-40.548 Z-0.827 F400.000
G1 X13.268 Y-40.280 Z-0.682 F400.000
G1 X13.546 Y-36.828 Z-0.403 F400.000
G1 X13.160 Y-36.374 Z0.050 F400.000
G0 Z3.000
G0 X13.546 Y-36.828 Z3.000
G1 X13.546 Y-36.828 Z-0.403 F400.000
G1 X14.000 Y-36.374 Z0.049 F400.000
G0 Z3.000
G0 X12.451 Y-41.711 Z3.000
G1 X12.451 Y-41.711 Z-1.499 F400.000
G1 X12.544 Y-41.804 Z-1.406 F400.000
G1 X12.871 Y-42.179 Z-1.197 F400.000
G1 X13.091 Y-42.534 Z-0.998 F400.000
G1 X13.221 Y-42.874 Z-0.808 F400.000
G1 X13.262 Y-43.089 Z-0.688 F400.000
G1 X13.531 Y-45.385 Z-0.419 F400.000
G0 Z3.000
G0 X13.160 Y-45.854 Z3.000
G1 X13.160 Y-45.854 Z0.050 F400.000
G1 X13.531 Y-45.385 Z-0.419 F400.000
G1 X14.000 Y-45.854 Z0.050 F400.000
G0 Z3.000
G0 X-1.948 Y-46.283 Z3.000
G1 X-1.948 Y-46.283 Z0.049 F400.000
G1 X-2.459 Y-45.772 Z-0.462 F400.000
G0 Z3.000
G0 X-2.862 Y-46.283 Z3.000
G1 X-2.862 Y-46.283 Z0.049 F400.000
G1 X-2.459 Y-45.772 Z-0.462 F400.000
G1 X-2.757 Y-43.260 Z-0.760 F400.000
G1 X-2.769 Y-43.062 Z-0.794 F400.000
G1 X-2.769 Y-41.730 Z-1.687 F400.000
G1 X-3.515 Y-41.712 Z-1.500 F400.000
G1 X-3.590 Y-41.712 Z-1.500 F400.000
G1 X-4.805 Y-41.711 Z-1.500 F400.000
G1 X-5.688 Y-41.700 Z-1.488 F400.000
G1 X-6.436 Y-41.670 Z-1.458 F400.000
G1 X-6.470 Y-41.668 Z-1.455 F400.000
G1 X-6.491 Y-41.667 Z-1.456 F400.000
G1 X-7.232 Y-41.605 Z-1.411 F400.000
G1 X-7.796 Y-41.538 Z-1.357 F400.000
G1 X-7.856 Y-41.531 Z-1.351 F400.000
G1 X-7.919 Y-41.522 Z-1.348 F400.000
G1 X-8.429 Y-41.430 Z-1.289 F400.000
G1 X-8.476 Y-41.421 Z-1.283 F400.000
G1 X-8.552 Y-41.406 Z-1.277 F400.000
G1 X-8.989 Y-41.298 Z-1.215 F400.000
G1 X-9.044 Y-41.285 Z-1.206 F400.000
G1 X-9.138 Y-41.259 Z-1.196 F400.000
G1 X-9.496 Y-41.144 Z-1.135 F400.000
G1 X-9.559 Y-41.123 Z-1.123 F400.000
G1 X-9.680 Y-41.081 Z-1.107 F400.000
G1 X-9.951 Y-40.969 Z-1.052 F400.000
G1 X-10.028 Y-40.936 Z-1.037 F400.000
G1 X-10.184 Y-40.864 Z-1.012 F400.000
G1 X-10.358 Y-40.774 Z-0.972 F400.000
G1 X-10.444 Y-40.726 Z-0.953 F400.000
G1 X-10.647 Y-40.606 Z-0.918 F400.000
G1 X-10.715 Y-40.561 Z-0.900 F400.000
G1 X-10.808 Y-40.495 Z-0.877 F400.000
G1 X-11.033 Y-40.324 Z-0.835 F400.000
G1 X-11.060 Y-40.304 Z-0.829 F400.000
G1 X-11.120 Y-40.248 Z-0.814 F400.000
G1 X-11.309 Y-40.062 Z-0.775 F400.000
G1 X-11.395 Y-39.971 Z-0.760 F400.000
G1 X-11.414 Y-39.949 Z-0.758 F400.000
G1 X-11.551 Y-39.771 Z-0.727 F400.000
G1 X-11.620 Y-39.675 Z-0.713 F400.000
G1 X-11.707 Y-39.541 Z-0.705 F400.000
G1 X-11.749 Y-39.466 Z-0.694 F400.000
G1 X-11.804 Y-39.361 Z-0.682 F400.000
G1 X-11.908 Y-39.136 Z-0.671 F400.000
G1 X-11.934 Y-39.080 Z-0.669 F400.000
G1 X-11.949 Y-39.033 Z-0.666 F400.000
G1 X-12.023 Y-38.790 Z-0.660 F400.000
G1 X-12.049 Y-38.692 Z-0.659 F400.000
G1 X-12.079 Y-38.564 Z-0.666 F400.000
G1 X-12.101 Y-38.432 Z-0.663 F400.000
G1 X-12.114 Y-38.340 Z-0.664 F400.000
G1 X-12.144 Y-38.058 Z-0.678 F400.000
G1 X-12.149 Y-38.002 Z-0.681 F400.000
G1 X-12.149 Y-37.976 Z-0.682 F400.000
G1 X-12.147 Y-37.543 Z-0.706 F400.000
G1 X-12.144 Y-37.448 Z-0.713 F400.000
G1 X-12.140 Y-37.395 Z-0.720 F400.000
G1 X-12.103 Y-37.043 Z-0.746 F400.000
G1 X-12.086 Y-36.928 Z-0.759 F400.000
G1 X-12.054 Y-36.748 Z-0.786 F400.000
G1 X-12.011 Y-36.546 Z-0.809 F400.000
G1 X-11.979 Y-36.420 Z-0.828 F400.000
G1 X-11.896 Y-36.138 Z-0.883 F400.000
G1 X-11.869 Y-36.055 Z-0.897 F400.000
G1 X-11.741 Y-35.755 Z-0.973 F400.000
G1 X-11.937 Y-35.522 Z-0.740 F400.000
G1 X-12.556 Y-34.732 Z0.050 F400.000
G0 Z3.000
G0 X-11.741 Y-35.755 Z3.000
G1 X-11.741 Y-35.755 Z-0.973 F400.000
G1 X-11.336 Y-35.637 Z-0.855 F400.000
G1 X-9.268 Y-35.270 Z-0.488 F400.000
G1 X-8.730 Y-35.647 Z0.049 F400.000
G0 Z3.000
G0 X-9.268 Y-35.270 Z3.000
G1 X-9.268 Y-35.270 Z-0.488 F400.000
G1 X-8.730 Y-34.732 Z0.049 F400.000
G0 Z3.000
G0 X5.222 Y-19.082 Z3.000
G1 X5.222 Y-19.082 Z0.050 F400.000
G1 X3.707 Y-20.597 Z-1.465 F400.000
G1 X3.599 Y-20.708 Z-1.573 F400.000
G1 X2.891 Y-20.724 Z-1.569 F400.000
G1 X2.852 Y-20.726 Z-1.569 F400.000
G1 X2.833 Y-20.727 Z-1.569 F400.000
G1 X2.086 Y-20.781 Z-1.555 F400.000
G1 X2.084 Y-20.781 Z-1.555 F400.000
G1 X2.015 Y-20.789 Z-1.552 F400.000
G1 X1.390 Y-20.870 Z-1.532 F400.000
G1 X1.328 Y-20.881 Z-1.527 F400.000
G1 X1.248 Y-20.896 Z-1.523 F400.000
G1 X0.764 Y-20.991 Z-1.500 F400.000
G1 X0.624 Y-21.025 Z-1.486 F400.000
G1 X0.534 Y-21.049 Z-1.479 F400.000
G1 X0.199 Y-21.141 Z-1.458 F400.000
G1 X-0.027 Y-21.216 Z-1.432 F400.000
G1 X-0.128 Y-21.252 Z-1.422 F400.000
G1 X-0.312 Y-21.320 Z-1.407 F400.000
G1 X-0.620 Y-21.454 Z-1.364 F400.000
G1 X-0.735 Y-21.508 Z-1.350 F400.000
G1 X-0.774 Y-21.527 Z-1.347 F400.000
G1 X-1.160 Y-21.745 Z-1.282 F400.000
G1 X-1.196 Y-21.766 Z-1.277 F400.000
G1 X-1.277 Y-21.823 Z-1.260 F400.000
G1 X-1.584 Y-22.047 Z-1.202 F400.000
G1 X-1.634 Y-22.088 Z-1.189 F400.000
G1 X-1.747 Y-22.187 Z-1.161 F400.000
G1 X-1.947 Y-22.376 Z-1.118 F400.000
G1 X-2.042 Y-22.476 Z-1.088 F400.000
G1 X-2.136 Y-22.582 Z-1.062 F400.000
G1 X-2.286 Y-22.763 Z-1.026 F400.000
G1 X-2.381 Y-22.892 Z-0.992 F400.000
G1 X-2.462 Y-23.010 Z-0.966 F400.000
G1 X-2.596 Y-23.221 Z-0.930 F400.000
G1 X-2.661 Y-23.337 Z-0.903 F400.000
G1 X-2.724 Y-23.460 Z-0.880 F400.000
G1 X-2.863 Y-23.756 Z-0.837 F400.000
G1 X-2.882 Y-23.802 Z-0.828 F400.000
G1 X-2.925 Y-23.916 Z-0.811 F400.000
G1 X-3.043 Y-24.277 Z-0.769 F400.000
G1 X-3.072 Y-24.371 Z-0.761 F400.000
G1 X-3.074 Y-24.382 Z-0.760 F400.000
G1 X-3.153 Y-24.764 Z-0.726 F400.000
G1 X-3.171 Y-24.863 Z-0.720 F400.000
G1 X-3.199 Y-25.062 Z-0.715 F400.000
G1 X-3.220 Y-25.266 Z-0.702 F400.000
G1 X-3.227 Y-25.352 Z-0.699 F400.000
G1 X-3.245 Y-25.781 Z-0.695 F400.000
G1 X-3.246 Y-25.818 Z-0.695 F400.000
G1 X-3.246 Y-25.857 Z-0.695 F400.000
G1 X-3.223 Y-26.328 Z-0.698 F400.000
G1 X-3.217 Y-26.414 Z-0.701 F400.000
G1 X-3.196 Y-26.619 Z-0.714 F400.000
G1 X-3.160 Y-26.860 Z-0.718 F400.000
G1 X-3.143 Y-26.953 Z-0.723 F400.000
G1 X-3.056 Y-27.365 Z-0.756 F400.000
G1 X-3.053 Y-27.377 Z-0.757 F400.000
G1 X-3.023 Y-27.481 Z-0.765 F400.000
G1 X-2.954 Y-27.696 Z-0.790 F400.000
G1 X-2.888 Y-27.883 Z-0.806 F400.000
G1 X-2.846 Y-27.990 Z-0.819 F400.000
G1 X-2.834 Y-28.019 Z-0.824 F400.000
G1 X-2.695 Y-28.322 Z-0.865 F400.000
G1 X-2.669 Y-28.375 Z-0.871 F400.000
G1 X-2.610 Y-28.486 Z-0.887 F400.000
G1 X-2.540 Y-28.606 Z-0.909 F400.000
G1 X-2.386 Y-28.855 Z-0.949 F400.000
G1 X-2.374 Y-28.875 Z-0.952 F400.000
G1 X-2.312 Y-28.961 Z-0.967 F400.000
G1 X-2.192 Y-29.121 Z-1.001 F400.000
G1 X-2.039 Y-29.312 Z-1.035 F400.000
G1 X-2.004 Y-29.354 Z-1.043 F400.000
G1 X-1.950 Y-29.412 Z-1.055 F400.000
G1 X-1.798 Y-29.570 Z-1.091 F400.000
G1 X-1.622 Y-29.742 Z-1.125 F400.000
G1 X-1.588 Y-29.774 Z-1.132 F400.000
G1 X-1.524 Y-29.829 Z-1.144 F400.000
G1 X-1.362 Y-29.963 Z-1.178 F400.000
G1 X-1.142 Y-30.133 Z-1.215 F400.000
G1 X-1.131 Y-30.142 Z-1.217 F400.000
G1 X-1.037 Y-30.206 Z-1.232 F400.000
G1 X-0.886 Y-30.305 Z-1.260 F400.000
G1 X-0.634 Y-30.459 Z-1.296 F400.000
G1 X-0.600 Y-30.479 Z-1.300 F400.000
G1 X-0.492 Y-30.538 Z-1.314 F400.000
G1 X-0.371 Y-30.600 Z-1.333 F400.000
G1 X-0.093 Y-30.732 Z-1.367 F400.000
G1 X-0.002 Y-30.773 Z-1.375 F400.000
G1 X0.107 Y-30.818 Z-1.387 F400.000
G1 X0.198 Y-30.854 Z-1.399 F400.000
G1 X0.505 Y-30.965 Z-1.429 F400.000
G1 X0.651 Y-31.014 Z-1.440 F400.000
G1 X0.751 Y-31.046 Z-1.449 F400.000
G1 X0.811 Y-31.063 Z-1.455 F400.000
G1 X1.349 Y-31.202 Z-1.492 F400.000
G1 X1.441 Y-31.224 Z-1.500 F400.000
G1 X1.532 Y-31.244 Z-1.509 F400.000
G1 X2.088 Y-31.344 Z-1.539 F400.000
G1 X2.172 Y-31.358 Z-1.545 F400.000
G1 X2.309 Y-31.379 Z-1.556 F400.000
G1 X2.869 Y-31.442 Z-1.581 F400.000
G1 X2.948 Y-31.450 Z-1.585 F400.000
G1 X3.165 Y-31.469 Z-1.599 F400.000
G1 X3.693 Y-31.497 Z-1.616 F400.000
G1 X4.102 Y-31.494 Z-1.654 F400.000
G1 X4.436 Y-31.445 Z-1.712 F400.000
G1 X4.475 Y-29.868 Z-0.697 F400.000
G1 X4.476 Y-29.831 Z-0.696 F400.000
G1 X4.476 Y-22.329 Z-0.696 F400.000
G1 X4.439 Y-21.999 Z-0.864 F400.000
G1 X4.329 Y-21.667 Z-1.034 F400.000
G1 X4.138 Y-21.325 Z-1.208 F400.000
G1 X3.942 Y-21.067 Z-1.339 F400.000
G1 X3.703 Y-20.810 Z-1.470 F400.000
G1 X3.599 Y-20.708 Z-1.574 F400.000
G0 Z3.000
G0 X11.916 Y-19.773 Z3.000
G1 X11.916 Y-19.773 Z0.050 F400.000
G1 X12.623 Y-20.357 Z-0.533 F400.000
G1 X12.961 Y-19.773 Z0.050 F400.000
G0 Z3.000
G0 X12.623 Y-20.357 Z3.000
G1 X12.623 Y-20.357 Z-0.534 F400.000
G1 X12.692 Y-20.544 Z-0.566 F400.000
G1 X12.733 Y-20.670 Z-0.582 F400.000
G1 X12.743 Y-20.701 Z-0.587 F400.000
G1 X12.858 Y-21.097 Z-0.647 F400.000
G1 X13.018 Y-21.726 Z-0.717 F400.000
G1 X13.065 Y-21.940 Z-0.735 F400.000
G1 X13.072 Y-21.972 Z-0.737 F400.000
G1 X13.164 Y-22.430 Z-0.784 F400.000
G1 X13.288 Y-23.162 Z-0.836 F400.000
G1 X13.300 Y-23.250 Z-0.840 F400.000
G1 X13.306 Y-23.303 Z-0.841 F400.000
G1 X13.367 Y-23.890 Z-0.881 F400.000
G1 X13.403 Y-24.402 Z-0.897 F400.000
G1 X13.407 Y-24.462 Z-0.900 F400.000
G1 X13.413 Y-24.619 Z-0.910 F400.000
G1 X13.414 Y-24.932 Z-0.919 F400.000
G1 X13.413 Y-24.983 Z-0.921 F400.000
G1 X13.405 Y-25.351 Z-0.942 F400.000
G1 X13.401 Y-25.431 Z-0.944 F400.000
G1 X13.397 Y-25.488 Z-0.945 F400.000
G1 X13.360 Y-25.914 Z-0.968 F400.000
G1 X13.353 Y-25.979 Z-0.971 F400.000
G1 X13.320 Y-26.263 Z-0.996 F400.000
G1 X13.301 Y-26.385 Z-1.001 F400.000
G1 X13.288 Y-26.459 Z-1.005 F400.000
G1 X13.213 Y-26.845 Z-1.037 F400.000
G1 X13.196 Y-26.925 Z-1.044 F400.000
G1 X13.155 Y-27.098 Z-1.066 F400.000
G1 X13.103 Y-27.292 Z-1.083 F400.000
G1 X13.077 Y-27.381 Z-1.091 F400.000
G1 X13.052 Y-27.463 Z-1.104 F400.000
G1 X12.962 Y-27.729 Z-1.132 F400.000
G1 X12.931 Y-27.817 Z-1.143 F400.000
G1 X12.927 Y-27.826 Z-1.144 F400.000
G1 X12.795 Y-28.144 Z-1.186 F400.000
G1 X12.790 Y-28.154 Z-1.187 F400.000
G1 X12.742 Y-28.255 Z-1.200 F400.000
G1 X12.646 Y-28.447 Z-1.230 F400.000
G1 X12.582 Y-28.566 Z-1.245 F400.000
G1 X12.531 Y-28.657 Z-1.257 F400.000
G1 X12.489 Y-28.729 Z-1.272 F400.000
G1 X12.349 Y-28.952 Z-1.303 F400.000
G1 X12.325 Y-28.989 Z-1.308 F400.000
G1 X12.283 Y-29.048 Z-1.316 F400.000
G1 X12.152 Y-29.227 Z-1.348 F400.000
G1 X12.075 Y-29.325 Z-1.360 F400.000
G1 X11.999 Y-29.417 Z-1.373 F400.000
G1 X11.973 Y-29.448 Z-1.381 F400.000
G1 X11.788 Y-29.651 Z-1.411 F400.000
G1 X11.764 Y-29.676 Z-1.414 F400.000
G1 X11.682 Y-29.757 Z-1.424 F400.000
G1 X11.598 Y-29.836 Z-1.438 F400.000
G1 X11.421 Y-29.994 Z-1.459 F400.000
G1 X11.402 Y-30.010 Z-1.460 F400.000
G1 X11.324 Y-30.072 Z-1.467 F400.000
G1 X11.194 Y-30.172 Z-1.484 F400.000
G1 X11.035 Y-30.284 Z-1.495 F400.000
G1 X10.980 Y-30.323 Z-1.498 F400.000
G1 X10.942 Y-30.346 Z-1.500 F400.000
G1 X10.746 Y-30.466 Z-1.516 F400.000
G1 X10.627 Y-30.534 Z-1.520 F400.000
G1 X10.526 Y-30.589 Z-1.524 F400.000
G1 X10.493 Y-30.606 Z-1.528 F400.000
G1 X10.220 Y-30.738 Z-1.539 F400.000
G1 X10.186 Y-30.754 Z-1.539 F400.000
G1 X10.079 Y-30.800 Z-1.541 F400.000
G1 X9.927 Y-30.862 Z-1.550 F400.000
G1 X9.709 Y-30.944 Z-1.554 F400.000
G1 X9.609 Y-30.979 Z-1.556 F400.000
G1 X9.607 Y-30.980 Z-1.556 F400.000
G1 X9.266 Y-31.086 Z-1.568 F400.000
G1 X9.201 Y-31.105 Z-1.568 F400.000
G1 X9.111 Y-31.129 Z-1.568 F400.000
G1 X8.918 Y-31.179 Z-1.576 F400.000
G1 X8.668 Y-31.234 Z-1.577 F400.000
G1 X8.585 Y-31.251 Z-1.577 F400.000
G1 X8.106 Y-31.345 Z-1.591 F400.000
G1 X8.099 Y-31.346 Z-1.591 F400.000
G1 X8.032 Y-31.356 Z-1.591 F400.000
G1 X7.516 Y-31.424 Z-1.598 F400.000
G1 X7.454 Y-31.432 Z-1.599 F400.000
G1 X7.200 Y-31.461 Z-1.608 F400.000
G1 X6.903 Y-31.485 Z-1.608 F400.000
G1 X6.816 Y-31.491 Z-1.609 F400.000
G1 X6.205 Y-31.524 Z-1.625 F400.000
G1 X5.604 Y-31.541 Z-1.624 F400.000
G1 X5.556 Y-31.542 Z-1.623 F400.000
G1 X5.222 Y-31.546 Z-1.629 F400.000
G1 X5.118 Y-31.546 Z-1.630 F400.000
G1 X4.777 Y-31.513 Z-1.671 F400.000
G1 X4.436 Y-31.445 Z-1.712 F400.000
G0 Z3.000
G0 X3.599 Y-3.750 Z3.000
G1 X3.599 Y-3.750 Z-1.573 F400.000
G1 X3.705 Y-3.854 Z-1.468 F400.000
G1 X4.045 Y-4.237 Z-1.273 F400.000
G1 X4.276 Y-4.599 Z-1.089 F400.000
G1 X4.415 Y-4.945 Z-0.913 F400.000
G1 X4.460 Y-5.158 Z-0.805 F400.000
G1 X4.476 Y-5.371 Z-0.696 F400.000
G1 X4.476 Y-12.872 Z-0.697 F400.000
G1 X4.475 Y-12.910 Z-0.697 F400.000
G1 X4.435 Y-14.487 Z-1.712 F400.000
G1 X4.102 Y-14.536 Z-1.654 F400.000
G1 X3.693 Y-14.539 Z-1.616 F400.000
G1 X3.165 Y-14.510 Z-1.600 F400.000
G1 X2.948 Y-14.491 Z-1.586 F400.000
G1 X2.871 Y-14.483 Z-1.580 F400.000
G1 X2.309 Y-14.420 Z-1.557 F400.000
G1 X2.175 Y-14.400 Z-1.546 F400.000
G1 X2.088 Y-14.386 Z-1.540 F400.000
G1 X1.531 Y-14.286 Z-1.510 F400.000
G1 X1.441 Y-14.265 Z-1.501 F400.000
G1 X1.347 Y-14.243 Z-1.492 F400.000
G1 X0.812 Y-14.105 Z-1.456 F400.000
G1 X0.749 Y-14.086 Z-1.449 F400.000
G1 X0.651 Y-14.056 Z-1.440 F400.000
G1 X0.506 Y-14.007 Z-1.430 F400.000
G1 X0.196 Y-13.894 Z-1.399 F400.000
G1 X0.107 Y-13.859 Z-1.388 F400.000
G1 X-0.002 Y-13.814 Z-1.375 F400.000
G1 X-0.094 Y-13.773 Z-1.368 F400.000
G1 X-0.369 Y-13.642 Z-1.335 F400.000
G1 X-0.492 Y-13.579 Z-1.316 F400.000
G1 X-0.598 Y-13.522 Z-1.300 F400.000
G1 X-0.633 Y-13.501 Z-1.298 F400.000
G1 X-0.887 Y-13.346 Z-1.261 F400.000
G1 X-1.035 Y-13.249 Z-1.234 F400.000
G1 X-1.131 Y-13.184 Z-1.218 F400.000
G1 X-1.144 Y-13.173 Z-1.215 F400.000
G1 X-1.362 Y-13.004 Z-1.180 F400.000
G1 X-1.526 Y-12.869 Z-1.145 F400.000
G1 X-1.589 Y-12.816 Z-1.132 F400.000
G1 X-1.622 Y-12.783 Z-1.125 F400.000
G1 X-1.797 Y-12.612 Z-1.093 F400.000
G1 X-1.950 Y-12.453 Z-1.056 F400.000
G1 X-2.003 Y-12.396 Z-1.043 F400.000
G1 X-2.038 Y-12.355 Z-1.035 F400.000
G1 X-2.192 Y-12.163 Z-1.002 F400.000
G1 X-2.311 Y-12.004 Z-0.968 F400.000
G1 X-2.375 Y-11.916 Z-0.952 F400.000
G1 X-2.386 Y-11.897 Z-0.949 F400.000
G1 X-2.541 Y-11.647 Z-0.911 F400.000
G1 X-2.610 Y-11.528 Z-0.888 F400.000
G1 X-2.669 Y-11.417 Z-0.871 F400.000
G1 X-2.695 Y-11.364 Z-0.866 F400.000
G1 X-2.834 Y-11.060 Z-0.826 F400.000
G1 X-2.846 Y-11.032 Z-0.821 F400.000
G1 X-2.888 Y-10.926 Z-0.806 F400.000
G1 X-2.954 Y-10.737 Z-0.790 F400.000
G1 X-3.023 Y-10.523 Z-0.766 F400.000
G1 X-3.053 Y-10.418 Z-0.757 F400.000
G1 X-3.056 Y-10.407 Z-0.757 F400.000
G1 X-3.143 Y-9.994 Z-0.724 F400.000
G1 X-3.160 Y-9.901 Z-0.718 F400.000
G1 X-3.196 Y-9.661 Z-0.715 F400.000
G1 X-3.217 Y-9.455 Z-0.702 F400.000
G1 X-3.224 Y-9.369 Z-0.698 F400.000
G1 X-3.245 Y-8.898 Z-0.697 F400.000
G1 X-3.246 Y-8.859 Z-0.695 F400.000
G1 X-3.246 Y-8.822 Z-0.695 F400.000
G1 X-3.226 Y-8.393 Z-0.700 F400.000
G1 X-3.220 Y-8.307 Z-0.702 F400.000
G1 X-3.199 Y-8.103 Z-0.716 F400.000
G1 X-3.171 Y-7.904 Z-0.721 F400.000
G1 X-3.153 Y-7.805 Z-0.726 F400.000
G1 X-3.074 Y-7.423 Z-0.761 F400.000
G1 X-3.071 Y-7.413 Z-0.761 F400.000
G1 X-3.043 Y-7.318 Z-0.769 F400.000
G1 X-2.924 Y-6.957 Z-0.812 F400.000
G1 X-2.882 Y-6.843 Z-0.829 F400.000
G1 X-2.864 Y-6.798 Z-0.838 F400.000
G1 X-2.724 Y-6.501 Z-0.881 F400.000
G1 X-2.661 Y-6.378 Z-0.903 F400.000
G1 X-2.596 Y-6.263 Z-0.930 F400.000
G1 X-2.462 Y-6.051 Z-0.966 F400.000
G1 X-2.381 Y-5.933 Z-0.992 F400.000
G1 X-2.287 Y-5.805 Z-1.026 F400.000
G1 X-2.136 Y-5.623 Z-1.063 F400.000
G1 X-2.042 Y-5.517 Z-1.088 F400.000
G1 X-1.947 Y-5.416 Z-1.119 F400.000
G1 X-1.747 Y-5.229 Z-1.161 F400.000
G1 X-1.634 Y-5.129 Z-1.189 F400.000
G1 X-1.584 Y-5.088 Z-1.202 F400.000
G1 X-1.277 Y-4.864 Z-1.260 F400.000
G1 X-1.196 Y-4.807 Z-1.277 F400.000
G1 X-1.158 Y-4.785 Z-1.283 F400.000
G1 X-0.773 Y-4.568 Z-1.347 F400.000
G1 X-0.733 Y-4.548 Z-1.350 F400.000
G1 X-0.622 Y-4.497 Z-1.363 F400.000
G1 X-0.312 Y-4.362 Z-1.407 F400.000
G1 X-0.130 Y-4.294 Z-1.421 F400.000
G1 X-0.027 Y-4.257 Z-1.432 F400.000
G1 X0.198 Y-4.183 Z-1.457 F400.000
G1 X0.534 Y-4.090 Z-1.478 F400.000
G1 X0.624 Y-4.066 Z-1.486 F400.000
G1 X0.763 Y-4.032 Z-1.498 F400.000
G1 X1.248 Y-3.937 Z-1.521 F400.000
G1 X1.328 Y-3.922 Z-1.527 F400.000
G1 X1.391 Y-3.911 Z-1.531 F400.000
G1 X2.015 Y-3.830 Z-1.551 F400.000
G1 X2.084 Y-3.822 Z-1.555 F400.000
G1 X2.087 Y-3.822 Z-1.554 F400.000
G1 X2.833 Y-3.768 Z-1.568 F400.000
G1 X2.851 Y-3.767 Z-1.569 F400.000
G1 X2.893 Y-3.766 Z-1.569 F400.000
G1 X3.599 Y-3.750 Z-1.573 F400.000
G1 X3.706 Y-3.640 Z-1.466 F400.000
G1 X5.222 Y-2.124 Z0.050 F400.000
G0 Z3.000
G0 X11.916 Y-2.814 Z3.000
G1 X11.916 Y-2.814 Z0.049 F400.000
G1 X12.623 Y-3.398 Z-0.533 F400.000
G1 X12.961 Y-2.814 Z0.049 F400.000
G0 Z3.000
G0 X12.623 Y-3.398 Z3.000
G1 X12.623 Y-3.398 Z-0.533 F400.000
G1 X12.692 Y-3.585 Z-0.566 F400.000
G1 X12.733 Y-3.711 Z-0.582 F400.000
G1 X12.743 Y-3.742 Z-0.587 F400.000
G1 X12.858 Y-4.138 Z-0.646 F400.000
G1 X13.018 Y-4.767 Z-0.717 F400.000
G1 X13.066 Y-4.982 Z-0.735 F400.000
G1 X13.072 Y-5.014 Z-0.737 F400.000
G1 X13.164 Y-5.471 Z-0.784 F400.000
G1 X13.288 Y-6.204 Z-0.836 F400.000
G1 X13.300 Y-6.291 Z-0.840 F400.000
G1 X13.306 Y-6.344 Z-0.841 F400.000
G1 X13.367 Y-6.931 Z-0.881 F400.000
G1 X13.403 Y-7.443 Z-0.897 F400.000
G1 X13.407 Y-7.503 Z-0.899 F400.000
G1 X13.413 Y-7.660 Z-0.910 F400.000
G1 X13.414 Y-7.973 Z-0.919 F400.000
G1 X13.413 Y-8.024 Z-0.921 F400.000
G1 X13.405 Y-8.393 Z-0.942 F400.000
G1 X13.401 Y-8.472 Z-0.944 F400.000
G1 X13.397 Y-8.529 Z-0.945 F400.000
G1 X13.360 Y-8.955 Z-0.968 F400.000
G1 X13.353 Y-9.020 Z-0.971 F400.000
G1 X13.320 Y-9.304 Z-0.996 F400.000
G1 X13.301 Y-9.426 Z-1.001 F400.000
G1 X13.288 Y-9.500 Z-1.005 F400.000
G1 X13.213 Y-9.886 Z-1.037 F400.000
G1 X13.196 Y-9.966 Z-1.044 F400.000
G1 X13.155 Y-10.139 Z-1.066 F400.000
G1 X13.103 Y-10.333 Z-1.083 F400.000
G1 X13.077 Y-10.422 Z-1.091 F400.000
G1 X13.052 Y-10.505 Z-1.104 F400.000
G1 X12.962 Y-10.770 Z-1.133 F400.000
G1 X12.931 Y-10.857 Z-1.142 F400.000
G1 X12.927 Y-10.867 Z-1.143 F400.000
G1 X12.795 Y-11.185 Z-1.186 F400.000
G1 X12.790 Y-11.195 Z-1.188 F400.000
G1 X12.742 Y-11.296 Z-1.199 F400.000
G1 X12.646 Y-11.488 Z-1.230 F400.000
G1 X12.582 Y-11.607 Z-1.245 F400.000
G1 X12.532 Y-11.696 Z-1.257 F400.000
G1 X12.488 Y-11.771 Z-1.272 F400.000
G1 X12.350 Y-11.992 Z-1.303 F400.000
G1 X12.325 Y-12.031 Z-1.308 F400.000
G1 X12.283 Y-12.090 Z-1.317 F400.000
G1 X12.152 Y-12.269 Z-1.347 F400.000
G1 X12.075 Y-12.367 Z-1.360 F400.000
G1 X11.999 Y-12.459 Z-1.374 F400.000
G1 X11.974 Y-12.489 Z-1.380 F400.000
G1 X11.789 Y-12.691 Z-1.411 F400.000
G1 X11.764 Y-12.718 Z-1.414 F400.000
G1 X11.679 Y-12.801 Z-1.424 F400.000
G1 X11.598 Y-12.879 Z-1.439 F400.000
G1 X11.418 Y-13.037 Z-1.459 F400.000
G1 X11.402 Y-13.052 Z-1.460 F400.000
G1 X11.327 Y-13.111 Z-1.467 F400.000
G1 X11.195 Y-13.212 Z-1.483 F400.000
G1 X11.038 Y-13.324 Z-1.494 F400.000
G1 X10.979 Y-13.365 Z-1.498 F400.000
G1 X10.939 Y-13.390 Z-1.501 F400.000
G1 X10.746 Y-13.507 Z-1.516 F400.000
G1 X10.624 Y-13.577 Z-1.520 F400.000
G1 X10.526 Y-13.630 Z-1.524 F400.000
G1 X10.494 Y-13.647 Z-1.528 F400.000
G1 X10.220 Y-13.779 Z-1.539 F400.000
G1 X10.186 Y-13.795 Z-1.539 F400.000
G1 X10.079 Y-13.841 Z-1.541 F400.000
G1 X9.926 Y-13.903 Z-1.550 F400.000
G1 X9.709 Y-13.985 Z-1.554 F400.000
G1 X9.611 Y-14.020 Z-1.556 F400.000
G1 X9.609 Y-14.021 Z-1.558 F400.000
G1 X9.267 Y-14.127 Z-1.568 F400.000
G1 X9.204 Y-14.146 Z-1.568 F400.000
G1 X9.108 Y-14.172 Z-1.569 F400.000
G1 X8.918 Y-14.220 Z-1.576 F400.000
G1 X8.664 Y-14.276 Z-1.577 F400.000
G1 X8.585 Y-14.292 Z-1.577 F400.000
G1 X8.106 Y-14.386 Z-1.592 F400.000
G1 X8.099 Y-14.387 Z-1.590 F400.000
G1 X8.036 Y-14.396 Z-1.590 F400.000
G1 X7.519 Y-14.465 Z-1.598 F400.000
G1 X7.451 Y-14.474 Z-1.599 F400.000
G1 X7.199 Y-14.502 Z-1.608 F400.000
G1 X6.900 Y-14.526 Z-1.608 F400.000
G1 X6.817 Y-14.532 Z-1.608 F400.000
G1 X6.205 Y-14.566 Z-1.625 F400.000
G1 X5.606 Y-14.582 Z-1.624 F400.000
G1 X5.556 Y-14.583 Z-1.623 F400.000
G1 X5.222 Y-14.587 Z-1.628 F400.000
G1 X5.119 Y-14.587 Z-1.630 F400.000
G1 X4.776 Y-14.555 Z-1.671 F400.000
G1 X4.435 Y-14.487 Z-1.712 F400.000
G0 Z3.000
G0 X-5.108 Y8.724 Z3.000
G1 X-5.108 Y8.724 Z0.049 F400.000
G1 X-5.774 Y9.390 Z-0.615 F400.000
G1 X-9.132 Y9.605 Z-0.830 F400.000
G1 X-9.490 Y9.665 Z-0.932 F400.000
G1 X-9.901 Y9.822 Z-1.048 F400.000
G0 Z3.000
G0 X-10.999 Y8.724 Z3.000
G1 X-10.999 Y8.724 Z0.049 F400.000
G1 X-9.901 Y9.822 Z-1.049 F400.000
G1 X-10.002 Y10.298 Z-0.947 F400.000
G1 X-10.046 Y10.787 Z-0.904 F400.000
G1 X-10.050 Y10.834 Z-0.899 F400.000
G1 X-10.088 Y11.413 Z-0.862 F400.000
G1 X-10.090 Y11.459 Z-0.859 F400.000
G1 X-10.149 Y12.891 Z-0.801 F400.000
G1 X-10.150 Y12.927 Z-0.799 F400.000
G1 X-10.185 Y14.729 Z-0.765 F400.000
G1 X-10.186 Y14.752 Z-0.763 F400.000
G1 X-10.197 Y16.926 Z-0.753 F400.000
G1 X-10.198 Y16.935 Z-0.752 F400.000
G1 X-10.197 Y17.887 Z-0.753 F400.000
G1 X-10.161 Y18.228 Z-0.923 F400.000
G1 X-10.051 Y18.573 Z-1.095 F400.000
G1 X-9.861 Y18.926 Z-1.271 F400.000
G1 X-9.581 Y19.293 Z-1.455 F400.000
G1 X-9.395 Y19.491 Z-1.554 F400.000
G1 X-9.198 Y19.688 Z-1.752 F400.000
G1 X-9.357 Y19.846 Z-1.593 F400.000
G1 X-9.709 Y20.246 Z-1.392 F400.000
G1 X-9.952 Y20.626 Z-1.202 F400.000
G1 X-10.103 Y20.989 Z-1.020 F400.000
G1 X-10.160 Y21.239 Z-0.895 F400.000
G1 X-10.179 Y21.488 Z-0.770 F400.000
G1 X-10.178 Y22.402 Z-0.772 F400.000
G1 X-10.179 Y22.412 Z-0.770 F400.000
G1 X-10.165 Y24.563 Z-0.784 F400.000
G1 X-10.165 Y24.586 Z-0.784 F400.000
G1 X-10.126 Y26.560 Z-0.824 F400.000
G1 X-10.125 Y26.588 Z-0.823 F400.000
G1 X-10.070 Y28.146 Z-0.880 F400.000
G1 X-10.069 Y28.185 Z-0.880 F400.000
G1 X-10.038 Y28.716 Z-0.912 F400.000
G1 X-10.034 Y28.776 Z-0.914 F400.000
G1 X-10.002 Y29.144 Z-0.948 F400.000
G1 X-9.965 Y29.393 Z-0.999 F400.000
G1 X-9.896 Y29.641 Z-1.052 F400.000
G1 X-10.999 Y30.744 Z0.049 F400.000
G0 Z3.000
G0 X-9.896 Y29.641 Z3.000
G1 X-9.896 Y29.641 Z-1.052 F400.000
G1 X-9.519 Y29.788 Z-0.947 F400.000
G1 X-9.134 Y29.854 Z-0.840 F400.000
G1 X-5.783 Y30.069 Z-0.625 F400.000
G1 X-5.108 Y29.475 Z0.050 F400.000
G0 Z3.000
G0 X-5.783 Y30.069 Z3.000
G1 X-5.783 Y30.069 Z-0.625 F400.000
G1 X-5.108 Y30.744 Z0.050 F400.000
G0 Z3.000
G0 X-9.198 Y19.688 Z3.000
G1 X-9.198 Y19.688 Z-1.751 F400.000
G1 X12.200 Y19.688 Z-1.751 F400.000
G1 X12.507 Y19.995 Z-1.444 F400.000
G1 X12.839 Y20.376 Z-1.241 F400.000
G1 X13.064 Y20.736 Z-1.049 F400.000
G1 X13.198 Y21.081 Z-0.866 F400.000
G1 X13.251 Y21.394 Z-0.699 F400.000
G1 X13.474 Y24.937 Z-0.475 F400.000
G1 X13.010 Y25.463 Z0.049 F400.000
G0 Z3.000
G0 X13.474 Y24.937 Z3.000
G1 X13.474 Y24.937 Z-0.476 F400.000
G1 X14.000 Y25.463 Z0.050 F400.000
G0 Z3.000
G0 X12.200 Y19.688 Z3.000
G1 X12.200 Y19.688 Z-1.750 F400.000
G1 X12.507 Y19.380 Z-1.443 F400.000
G1 X12.839 Y18.999 Z-1.241 F400.000
G1 X13.064 Y18.639 Z-1.049 F400.000
G1 X13.198 Y18.294 Z-0.866 F400.000
G1 X13.251 Y17.981 Z-0.699 F400.000
G1 X13.474 Y14.438 Z-0.476 F400.000
G0 Z3.000
G0 X13.010 Y13.912 Z3.000
G1 X13.010 Y13.912 Z0.049 F400.000
G1 X13.474 Y14.438 Z-0.475 F400.000
G1 X14.000 Y13.912 Z0.050 F400.000
G0 Z3.000
G0 X-5.108 Y9.975 Z3.000
G1 X-5.108 Y9.975 Z0.050 F400.000
G1 X-5.774 Y9.390 Z-0.615 F400.000
G0 Z3.000
G0 X-2.676 Y31.315 Z3.000
G1 X-2.676 Y31.315 Z0.050 F400.000
G1 X-3.056 Y31.774 Z-0.408 F400.000
G1 X-3.515 Y31.315 Z0.050 F400.000
G0 Z3.000
G0 X-3.056 Y31.774 Z3.000
G1 X-3.056 Y31.774 Z-0.409 F400.000
G1 X-2.856 Y33.919 Z-0.610 F400.000
G1 X-2.792 Y34.227 Z-0.777 F400.000
G1 X-2.650 Y34.542 Z-0.949 F400.000
G1 X-2.424 Y34.867 Z-1.127 F400.000
G1 X-2.209 Y35.103 Z-1.256 F400.000
G1 X-1.966 Y35.346 Z-1.499 F400.000
G1 X-3.515 Y36.894 Z0.049 F400.000
G0 Z3.000
G0 X-1.966 Y35.346 Z3.000
G1 X-1.966 Y35.346 Z-1.499 F400.000
G1 X12.451 Y35.346 Z-1.499 F400.000
G1 X12.693 Y35.587 Z-1.258 F400.000
G1 X13.001 Y35.943 Z-1.066 F400.000
G1 X13.202 Y36.279 Z-0.884 F400.000
G1 X13.314 Y36.600 Z-0.711 F400.000
G1 X13.343 Y36.793 Z-0.607 F400.000
G1 X13.548 Y39.446 Z-0.402 F400.000
G1 X13.160 Y39.898 Z0.050 F400.000
G0 Z3.000
G0 X13.548 Y39.446 Z3.000
G1 X13.548 Y39.446 Z-0.403 F400.000
G1 X14.000 Y39.898 Z0.049 F400.000
G0 Z3.000
G0 X12.451 Y35.346 Z3.000
G1 X12.451 Y35.346 Z-1.498 F400.000
G1 X12.693 Y35.104 Z-1.257 F400.000
G1 X13.001 Y34.748 Z-1.065 F400.000
G1 X13.202 Y34.412 Z-0.884 F400.000
G1 X13.314 Y34.092 Z-0.711 F400.000
G1 X13.343 Y33.899 Z-0.607 F400.000
G1 X13.547 Y31.264 Z-0.403 F400.000
G0 Z3.000
G0 X13.160 Y30.811 Z3.000
G1 X13.160 Y30.811 Z0.050 F400.000
G1 X13.547 Y31.264 Z-0.402 F400.000
G1 X14.000 Y30.811 Z0.050 F400.000
G0 Z3.000
G0 X-8.876 Y33.069 Z3.000
G1 X-8.876 Y33.069 Z0.050 F400.000
G1 X-9.246 Y34.940 Z-1.847 F400.000
G1 X-8.508 Y33.181 Z0.050 F400.000
G0 Z3.000
G0 X-8.167 Y33.367 Z3.000
G1 X-8.167 Y33.367 Z0.049 F400.000
G1 X-9.251 Y34.955 Z-1.863 F400.000
G1 X-9.275 Y35.012 Z-1.921 F400.000
G1 X-9.273 Y33.031 Z0.049 F400.000
G0 Z3.000
G0 X-9.677 Y33.069 Z3.000
G1 X-9.677 Y33.069 Z0.050 F400.000
G1 X-9.306 Y34.978 Z-1.885 F400.000
G1 X-9.311 Y34.968 Z-1.874 F400.000
G0 Z3.000
G0 X-9.306 Y34.978 Z3.000
G1 X-9.306 Y34.978 Z-1.885 F400.000
G1 X-9.282 Y35.035 Z-1.944 F400.000
G1 X-9.282 Y35.056 Z-1.960 F400.000
G1 X-7.855 Y33.629 Z0.050 F400.000
G0 Z3.000
G0 X-7.593 Y33.941 Z3.000
G1 X-7.593 Y33.941 Z0.049 F400.000
G1 X-9.181 Y35.025 Z-1.863 F400.000
G1 X-9.166 Y35.020 Z-1.847 F400.000
G1 X-7.407 Y34.282 Z0.050 F400.000
G0 Z3.000
G0 X-7.295 Y34.650 Z3.000
G1 X-7.295 Y34.650 Z0.050 F400.000
G1 X-9.166 Y35.020 Z-1.848 F400.000
G0 Z3.000
G0 X-9.181 Y35.025 Z3.000
G1 X-9.181 Y35.025 Z-1.863 F400.000
G1 X-9.238 Y35.049 Z-1.921 F400.000
G1 X-7.257 Y35.047 Z0.049 F400.000
G0 Z3.000
G0 X-7.295 Y35.451 Z3.000
G1 X-7.295 Y35.451 Z0.050 F400.000
G1 X-9.204 Y35.080 Z-1.885 F400.000
G1 X-9.194 Y35.085 Z-1.874 F400.000
G0 Z3.000
G0 X-9.204 Y35.080 Z3.000
G1 X-9.204 Y35.080 Z-1.885 F400.000
G1 X-9.261 Y35.056 Z-1.944 F400.000
G1 X-9.282 Y35.056 Z-1.960 F400.000
G1 X-9.282 Y35.056 Z-1.960 F400.000
G0 Z3.000
G0 X-9.282 Y35.056 Z3.000
G1 X-9.282 Y35.056 Z-1.961 F400.000
G1 X-9.282 Y35.059 Z-1.959 F400.000
G0 Z3.000
G0 X-9.285 Y35.056 Z3.000
G1 X-9.285 Y35.056 Z-1.959 F400.000
G1 X-9.282 Y35.056 Z-1.961 F400.000
G1 X-10.710 Y36.484 Z0.050 F400.000
G0 Z3.000
G0 X-10.396 Y36.745 Z3.000
G1 X-10.396 Y36.745 Z0.050 F400.000
G1 X-9.308 Y35.136 Z-1.884 F400.000
G1 X-10.052 Y36.931 Z0.049 F400.000
G0 Z3.000
G0 X-9.677 Y37.043 Z3.000
G1 X-9.677 Y37.043 Z0.049 F400.000
G1 X-9.305 Y35.131 Z-1.889 F400.000
G1 X-9.308 Y35.136 Z-1.883 F400.000
G0 Z3.000
G0 X-9.305 Y35.131 Z3.000
G1 X-9.305 Y35.131 Z-1.889 F400.000
G1 X-9.282 Y35.075 Z-1.947 F400.000
G1 X-9.282 Y35.059 Z-1.959 F400.000
G1 X-7.855 Y36.484 Z0.050 F400.000
G0 Z3.000
G0 X-8.167 Y36.745 Z3.000
G1 X-8.167 Y36.745 Z0.050 F400.000
G1 X-9.253 Y35.151 Z-1.869 F400.000
G1 X-9.275 Y35.099 Z-1.923 F400.000
G1 X-9.273 Y37.081 Z0.050 F400.000
G0 Z3.000
G0 X-8.876 Y37.043 Z3.000
G1 X-8.876 Y37.043 Z0.049 F400.000
G1 X-9.246 Y35.172 Z-1.849 F400.000
G1 X-8.508 Y36.931 Z0.049 F400.000
G0 Z3.000
G0 X-7.593 Y36.170 Z3.000
G1 X-7.593 Y36.170 Z0.049 F400.000
G1 X-9.194 Y35.085 Z-1.874 F400.000
G1 X-7.407 Y35.826 Z0.050 F400.000
G0 Z3.000
G0 X-9.246 Y35.172 Z3.000
G1 X-9.246 Y35.172 Z-1.849 F400.000
G1 X-9.253 Y35.151 Z-1.870 F400.000
G0 Z3.000
G0 X-9.275 Y35.099 Z3.000
G1 X-9.275 Y35.099 Z-1.923 F400.000
G1 X-9.282 Y35.075 Z-1.946 F400.000
G0 Z3.000
G0 X-9.301 Y35.056 Z3.000
G1 X-9.301 Y35.056 Z-1.946 F400.000
G1 X-9.325 Y35.049 Z-1.923 F400.000
G0 Z3.000
G0 X-9.357 Y35.079 Z3.000
G1 X-9.357 Y35.079 Z-1.889 F400.000
G1 X-9.301 Y35.056 Z-1.947 F400.000
G1 X-9.285 Y35.056 Z-1.959 F400.000
G1 X-10.710 Y33.629 Z0.050 F400.000
G0 Z3.000
G0 X-10.971 Y33.941 Z3.000
G1 X-10.971 Y33.941 Z0.050 F400.000
G1 X-9.377 Y35.027 Z-1.870 F400.000
G1 X-9.325 Y35.049 Z-1.924 F400.000
G1 X-11.307 Y35.047 Z0.050 F400.000
G0 Z3.000
G0 X-11.269 Y34.650 Z3.000
G1 X-11.269 Y34.650 Z0.049 F400.000
G1 X-9.398 Y35.020 Z-1.849 F400.000
G1 X-11.157 Y34.282 Z0.049 F400.000
G0 Z3.000
G0 X-11.269 Y35.451 Z3.000
G1 X-11.269 Y35.451 Z0.049 F400.000
G1 X-9.357 Y35.079 Z-1.889 F400.000
G1 X-9.362 Y35.082 Z-1.884 F400.000
G1 X-11.157 Y35.826 Z0.049 F400.000
G0 Z3.000
G0 X-10.971 Y36.170 Z3.000
G1 X-10.971 Y36.170 Z0.049 F400.000
G1 X-9.362 Y35.082 Z-1.883 F400.000
G0 Z3.000
G0 X-9.377 Y35.027 Z3.000
G1 X-9.377 Y35.027 Z-1.870 F400.000
G1 X-9.398 Y35.020 Z-1.849 F400.000
G0 Z3.000
G0 X-9.282 Y35.035 Z3.000
G1 X-9.282 Y35.035 Z-1.944 F400.000
G1 X-9.275 Y35.012 Z-1.921 F400.000
G0 Z3.000
G0 X-9.261 Y35.056 Z3.000
G1 X-9.261 Y35.056 Z-1.944 F400.000
G1 X-9.238 Y35.049 Z-1.921 F400.000
G0 Z3.000
G0 X-9.251 Y34.955 Z3.000
G1 X-9.251 Y34.955 Z-1.863 F400.000
G1 X-9.246 Y34.940 Z-1.847 F400.000
G0 Z3.000
G0 X-10.052 Y33.181 Z3.000
G1 X-10.052 Y33.181 Z0.050 F400.000
G1 X-9.311 Y34.968 Z-1.874 F400.000
G1 X-10.396 Y33.367 Z0.050 F400.000
G0 Z3.000
G0 X-2.676 Y41.400 Z3.000
G1 X-2.676 Y41.400 Z0.050 F400.000
G1 X-3.052 Y41.863 Z-0.413 F400.000
G1 X-3.515 Y41.400 Z0.049 F400.000
G0 Z3.000
G0 X-3.052 Y41.863 Z3.000
G1 X-3.052 Y41.863 Z-0.414 F400.000
G1 X-2.855 Y43.757 Z-0.611 F400.000
G1 X-2.787 Y44.065 Z-0.780 F400.000
G1 X-2.642 Y44.380 Z-0.954 F400.000
G1 X-2.411 Y44.706 Z-1.134 F400.000
G1 X-2.209 Y44.927 Z-1.256 F400.000
G1 X-1.983 Y45.153 Z-1.483 F400.000
G1 X-3.515 Y46.532 Z0.049 F400.000
G0 Z3.000
G0 X-1.983 Y45.153 Z3.000
G1 X-1.983 Y45.153 Z-1.483 F400.000
G1 X-1.946 Y45.155 Z-1.485 F400.000
G1 X-1.760 Y45.171 Z-1.506 F400.000
G1 X-1.574 Y45.198 Z-1.527 F400.000
G0 Z3.000
G0 X-0.957 Y55.108 Z3.000
G1 X-0.957 Y55.108 Z-1.603 F400.000
G1 X-0.899 Y55.124 Z-1.590 F400.000
G1 X-0.736 Y55.171 Z-1.567 F400.000
G1 X-0.630 Y55.205 Z-1.558 F400.000
G1 X-0.444 Y55.265 Z-1.547 F400.000
G1 X-0.293 Y55.311 Z-1.542 F400.000
G1 X-0.180 Y55.342 Z-1.542 F400.000
G1 X0.018 Y55.388 Z-1.533 F400.000
G1 X0.157 Y55.418 Z-1.528 F400.000
G1 X0.237 Y55.432 Z-1.529 F400.000
G1 X0.490 Y55.469 Z-1.518 F400.000
G1 X0.616 Y55.485 Z-1.515 F400.000
G1 X0.688 Y55.492 Z-1.516 F400.000
G1 X0.971 Y55.512 Z-1.506 F400.000
G1 X1.083 Y55.518 Z-1.503 F400.000
G1 X1.198 Y55.521 Z-1.504 F400.000
G1 X1.458 Y55.526 Z-1.500 F400.000
G1 X1.508 Y55.526 Z-1.498 F400.000
G1 X12.451 Y55.526 Z-1.499 F400.000
G1 X12.693 Y55.768 Z-1.257 F400.000
G1 X13.000 Y56.124 Z-1.064 F400.000
G1 X13.202 Y56.460 Z-0.881 F400.000
G1 X13.314 Y56.780 Z-0.706 F400.000
G1 X13.342 Y56.960 Z-0.608 F400.000
G1 X13.543 Y59.249 Z-0.407 F400.000
G1 X13.160 Y59.706 Z0.050 F400.000
G0 Z3.000
G0 X13.543 Y59.249 Z3.000
G1 X13.543 Y59.249 Z-0.407 F400.000
G1 X14.000 Y59.706 Z0.050 F400.000
G0 Z3.000
G0 X14.000 Y61.759 Z3.000
G1 X14.000 Y61.759 Z0.050 F400.000
G1 X13.543 Y62.216 Z-0.407 F400.000
G0 Z3.000
G0 X13.160 Y61.759 Z3.000
G1 X13.160 Y61.759 Z0.050 F400.000
G1 X13.543 Y62.216 Z-0.407 F400.000
G1 X13.341 Y64.487 Z-0.608 F400.000
G1 X13.278 Y64.795 Z-0.776 F400.000
G1 X13.138 Y65.110 Z-0.947 F400.000
G1 X12.913 Y65.435 Z-1.124 F400.000
G1 X12.693 Y65.678 Z-1.256 F400.000
G1 X12.451 Y65.920 Z-1.498 F400.000
G1 X1.508 Y65.920 Z-1.498 F400.000
G1 X1.460 Y65.920 Z-1.499 F400.000
G1 X1.193 Y65.916 Z-1.503 F400.000
G1 X1.072 Y65.912 Z-1.503 F400.000
G1 X0.971 Y65.907 Z-1.505 F400.000
G1 X0.638 Y65.886 Z-1.516 F400.000
G1 X0.607 Y65.883 Z-1.516 F400.000
G1 X0.492 Y65.871 Z-1.518 F400.000
G1 X0.158 Y65.827 Z-1.532 F400.000
G1 X0.151 Y65.826 Z-1.532 F400.000
G1 X0.016 Y65.801 Z-1.536 F400.000
G1 X-0.267 Y65.741 Z-1.550 F400.000
G1 X-0.301 Y65.732 Z-1.550 F400.000
G1 X-0.447 Y65.692 Z-1.555 F400.000
G1 X-0.637 Y65.635 Z-1.566 F400.000
G1 X-0.738 Y65.599 Z-1.567 F400.000
G1 X-0.893 Y65.540 Z-1.573 F400.000
G1 X-0.952 Y65.515 Z-1.577 F400.000
G1 X-1.159 Y65.418 Z-1.581 F400.000
G1 X-1.218 Y65.389 Z-1.582 F400.000
G1 X-1.320 Y65.330 Z-1.582 F400.000
G1 X-1.442 Y65.254 Z-1.584 F400.000
G1 X-1.556 Y65.175 Z-1.578 F400.000
G1 X-1.635 Y65.119 Z-1.576 F400.000
G1 X-1.712 Y65.052 Z-1.569 F400.000
G1 X-1.800 Y64.972 Z-1.564 F400.000
G1 X-1.910 Y64.859 Z-1.547 F400.000
G1 X-1.957 Y64.811 Z-1.541 F400.000
G1 X-2.040 Y64.706 Z-1.524 F400.000
G1 X-2.102 Y64.625 Z-1.512 F400.000
G1 X-2.199 Y64.480 Z-1.483 F400.000
G1 X-2.250 Y64.401 Z-1.469 F400.000
G1 X-2.294 Y64.318 Z-1.453 F400.000
G1 X-2.390 Y64.131 Z-1.419 F400.000
G1 X-2.418 Y64.069 Z-1.405 F400.000
G1 X-2.487 Y63.903 Z-1.372 F400.000
G1 X-2.522 Y63.810 Z-1.357 F400.000
G1 X-2.580 Y63.633 Z-1.321 F400.000
G1 X-2.626 Y63.478 Z-1.294 F400.000
G1 X-2.639 Y63.427 Z-1.287 F400.000
G1 X-2.691 Y63.191 Z-1.243 F400.000
G1 X-2.717 Y63.059 Z-1.222 F400.000
G1 X-2.726 Y63.002 Z-1.215 F400.000
G1 X-2.755 Y62.753 Z-1.172 F400.000
G1 X-2.767 Y62.636 Z-1.154 F400.000
G1 X-2.781 Y62.436 Z-1.129 F400.000
G1 X-2.783 Y62.312 Z-1.107 F400.000
G1 X-2.784 Y62.209 Z-1.092 F400.000
G1 X-2.776 Y61.866 Z-1.047 F400.000
G1 X-2.773 Y61.786 Z-1.038 F400.000
G1 X-2.771 Y61.758 Z-1.035 F400.000
G1 X-2.740 Y61.422 Z-0.992 F400.000
G1 X-2.731 Y61.348 Z-0.983 F400.000
G1 X-2.681 Y60.965 Z-0.947 F400.000
G1 X-2.658 Y60.825 Z-0.929 F400.000
G1 X-2.649 Y60.770 Z-0.923 F400.000
G1 X-2.535 Y60.171 Z-0.865 F400.000
G1 X-2.528 Y60.138 Z-0.862 F400.000
G1 X-2.512 Y60.063 Z-0.856 F400.000
G1 X-2.296 Y59.135 Z-0.761 F400.000
G1 X-2.227 Y58.867 Z-0.727 F400.000
G1 X-2.218 Y58.835 Z-0.724 F400.000
G1 X-2.057 Y58.260 Z-0.664 F400.000
G1 X-1.862 Y57.628 Z-0.581 F400.000
G1 X-1.858 Y57.614 Z-0.579 F400.000
G1 X-1.801 Y57.437 Z-0.558 F400.000
G1 X-1.528 Y56.662 Z-0.443 F400.000
G1 X-1.524 Y56.649 Z-0.441 F400.000
G1 X-0.957 Y55.108 Z-1.603 F400.000
G1 X-1.157 Y54.991 Z-1.591 F400.000
G1 X-1.162 Y54.988 Z-1.590 F400.000
G1 X-1.324 Y54.894 Z-1.592 F400.000
G1 X-1.353 Y54.877 Z-1.593 F400.000
G1 X-1.476 Y54.794 Z-1.593 F400.000
G1 X-1.564 Y54.729 Z-1.588 F400.000
G1 X-1.590 Y54.710 Z-1.587 F400.000
G1 X-1.695 Y54.621 Z-1.579 F400.000
G1 X-1.704 Y54.611 Z-1.578 F400.000
G1 X-1.792 Y54.523 Z-1.568 F400.000
G1 X-1.891 Y54.416 Z-1.551 F400.000
G1 X-1.903 Y54.402 Z-1.548 F400.000
G1 X-1.990 Y54.296 Z-1.529 F400.000
G1 X-2.020 Y54.253 Z-1.521 F400.000
G1 X-2.078 Y54.167 Z-1.506 F400.000
G1 X-2.177 Y54.008 Z-1.470 F400.000
G1 X-2.275 Y53.839 Z-1.439 F400.000
G1 X-2.307 Y53.779 Z-1.430 F400.000
G1 X-2.403 Y53.576 Z-1.389 F400.000
G1 X-2.470 Y53.420 Z-1.363 F400.000
G1 X-2.492 Y53.365 Z-1.356 F400.000
G1 X-2.569 Y53.135 Z-1.314 F400.000
G1 X-2.616 Y52.983 Z-1.291 F400.000
G1 X-2.636 Y52.910 Z-1.281 F400.000
G1 X-2.687 Y52.680 Z-1.241 F400.000
G1 X-2.712 Y52.552 Z-1.222 F400.000
G1 X-2.735 Y52.415 Z-1.206 F400.000
G1 X-2.756 Y52.228 Z-1.174 F400.000
G1 X-2.767 Y52.113 Z-1.157 F400.000
G1 X-2.781 Y51.910 Z-1.132 F400.000
G1 X-2.784 Y51.769 Z-1.108 F400.000
G1 X-2.784 Y51.672 Z-1.094 F400.000
G1 X-2.777 Y51.331 Z-1.050 F400.000
G1 X-2.775 Y51.307 Z-1.046 F400.000
G1 X-2.769 Y51.226 Z-1.034 F400.000
G1 X-2.730 Y50.840 Z-0.982 F400.000
G1 X-2.721 Y50.765 Z-0.974 F400.000
G1 X-2.709 Y50.676 Z-0.965 F400.000
G1 X-2.583 Y49.945 Z-0.867 F400.000
G1 X-2.574 Y49.898 Z-0.860 F400.000
G1 X-2.561 Y49.841 Z-0.852 F400.000
G1 X-2.406 Y49.176 Z-0.766 F400.000
G1 X-2.330 Y48.882 Z-0.721 F400.000
G1 X-2.319 Y48.842 Z-0.716 F400.000
G1 X-2.197 Y48.416 Z-0.662 F400.000
G1 X-2.002 Y47.793 Z-0.566 F400.000
G1 X-1.994 Y47.769 Z-0.563 F400.000
G1 X-1.959 Y47.664 Z-0.549 F400.000
G1 X-1.686 Y46.910 Z-0.430 F400.000
G1 X-1.630 Y46.623 Z-0.433 F400.000
G1 X-1.574 Y45.198 Z-1.527 F400.000
G1 X-1.157 Y45.170 Z-1.499 F400.000
G1 X12.452 Y45.169 Z-1.499 F400.000
G1 X12.693 Y45.411 Z-1.258 F400.000
G1 X13.000 Y45.767 Z-1.064 F400.000
G1 X13.202 Y46.103 Z-0.881 F400.000
G1 X13.314 Y46.424 Z-0.706 F400.000
G1 X13.342 Y46.603 Z-0.608 F400.000
G1 X13.543 Y48.892 Z-0.407 F400.000
G1 X13.160 Y49.349 Z0.050 F400.000
G0 Z3.000
G0 X13.543 Y48.892 Z3.000
G1 X13.543 Y48.892 Z-0.408 F400.000
G1 X14.000 Y49.349 Z0.049 F400.000
G0 Z3.000
G0 X14.000 Y51.383 Z3.000
G1 X14.000 Y51.383 Z0.049 F400.000
G1 X13.542 Y51.841 Z-0.407 F400.000
G1 X13.160 Y51.383 Z0.049 F400.000
G0 Z3.000
G0 X13.542 Y51.841 Z3.000
G1 X13.542 Y51.841 Z-0.407 F400.000
G1 X13.341 Y54.094 Z-0.608 F400.000
G1 X13.278 Y54.402 Z-0.776 F400.000
G1 X13.138 Y54.716 Z-0.947 F400.000
G1 X12.913 Y55.042 Z-1.124 F400.000
G1 X12.693 Y55.284 Z-1.256 F400.000
G1 X12.451 Y55.526 Z-1.498 F400.000
G0 Z3.000
G0 X12.452 Y45.169 Z3.000
G1 X12.452 Y45.169 Z-1.498 F400.000
G1 X12.693 Y44.928 Z-1.257 F400.000
G1 X13.000 Y44.573 Z-1.061 F400.000
G1 X13.202 Y44.237 Z-0.875 F400.000
G1 X13.313 Y43.916 Z-0.698 F400.000
G1 X13.340 Y43.757 Z-0.610 F400.000
G1 X13.536 Y41.864 Z-0.414 F400.000
G0 Z3.000
G0 X13.160 Y41.400 Z3.000
G1 X13.160 Y41.400 Z0.050 F400.000
G1 X13.536 Y41.864 Z-0.413 F400.000
G1 X14.000 Y41.400 Z0.050 F400.000
G0 Z3.000
G0 X12.451 Y65.920 Z3.000
G1 X12.451 Y65.920 Z-1.499 F400.000
G1 X12.693 Y66.162 Z-1.257 F400.000
G1 X13.000 Y66.517 Z-1.061 F400.000
G1 X13.202 Y66.853 Z-0.876 F400.000
G1 X13.313 Y67.174 Z-0.699 F400.000
G1 X13.340 Y67.335 Z-0.610 F400.000
G1 X13.537 Y69.264 Z-0.413 F400.000
G1 X13.160 Y69.727 Z0.050 F400.000
G0 Z3.000
G0 X13.537 Y69.264 Z3.000
G1 X13.537 Y69.264 Z-0.413 F400.000
G1 X14.000 Y69.727 Z0.050 F400.000
G0 Z3.000
G0 X4.436 Y73.570 Z3.000
G1 X4.436 Y73.570 Z-1.713 F400.000
G1 X4.777 Y73.502 Z-1.672 F400.000
G1 X5.118 Y73.470 Z-1.631 F400.000
G1 X5.222 Y73.469 Z-1.628 F400.000
G1 X5.556 Y73.473 Z-1.624 F400.000
G1 X5.604 Y73.475 Z-1.624 F400.000
G1 X6.205 Y73.491 Z-1.625 F400.000
G1 X6.816 Y73.524 Z-1.609 F400.000
G1 X6.903 Y73.531 Z-1.608 F400.000
G1 X7.200 Y73.554 Z-1.608 F400.000
G1 X7.454 Y73.583 Z-1.600 F400.000
G1 X7.516 Y73.591 Z-1.598 F400.000
G1 X8.032 Y73.659 Z-1.592 F400.000
G1 X8.099 Y73.669 Z-1.591 F400.000
G1 X8.106 Y73.670 Z-1.591 F400.000
G1 X8.585 Y73.764 Z-1.578 F400.000
G1 X8.668 Y73.781 Z-1.577 F400.000
G1 X8.918 Y73.836 Z-1.576 F400.000
G1 X9.111 Y73.886 Z-1.569 F400.000
G1 X9.201 Y73.910 Z-1.567 F400.000
G1 X9.266 Y73.929 Z-1.567 F400.000
G1 X9.607 Y74.035 Z-1.557 F400.000
G1 X9.609 Y74.036 Z-1.557 F400.000
G1 X9.709 Y74.072 Z-1.553 F400.000
G1 X9.927 Y74.153 Z-1.549 F400.000
G1 X10.079 Y74.215 Z-1.542 F400.000
G1 X10.186 Y74.262 Z-1.539 F400.000
G1 X10.220 Y74.277 Z-1.539 F400.000
G1 X10.493 Y74.409 Z-1.528 F400.000
G1 X10.526 Y74.426 Z-1.525 F400.000
G1 X10.627 Y74.481 Z-1.520 F400.000
G1 X10.746 Y74.549 Z-1.515 F400.000
G1 X10.942 Y74.669 Z-1.501 F400.000
G1 X10.980 Y74.692 Z-1.499 F400.000
G1 X11.035 Y74.731 Z-1.494 F400.000
G1 X11.194 Y74.843 Z-1.483 F400.000
G1 X11.324 Y74.943 Z-1.468 F400.000
G1 X11.402 Y75.005 Z-1.460 F400.000
G1 X11.421 Y75.021 Z-1.458 F400.000
G1 X11.598 Y75.179 Z-1.438 F400.000
G1 X11.682 Y75.258 Z-1.424 F400.000
G1 X11.764 Y75.339 Z-1.413 F400.000
G1 X11.788 Y75.364 Z-1.410 F400.000
G1 X11.973 Y75.567 Z-1.380 F400.000
G1 X11.999 Y75.598 Z-1.374 F400.000
G1 X12.075 Y75.690 Z-1.359 F400.000
G1 X12.152 Y75.788 Z-1.347 F400.000
G1 X12.283 Y75.967 Z-1.317 F400.000
G1 X12.325 Y76.026 Z-1.308 F400.000
G1 X12.349 Y76.063 Z-1.303 F400.000
G1 X12.489 Y76.286 Z-1.270 F400.000
G1 X12.531 Y76.358 Z-1.258 F400.000
G1 X12.582 Y76.449 Z-1.244 F400.000
G1 X12.646 Y76.568 Z-1.229 F400.000
G1 X12.742 Y76.760 Z-1.200 F400.000
G1 X12.790 Y76.861 Z-1.187 F400.000
G1 X12.795 Y76.871 Z-1.186 F400.000
G1 X12.927 Y77.189 Z-1.144 F400.000
G1 X12.931 Y77.198 Z-1.143 F400.000
G1 X12.963 Y77.286 Z-1.131 F400.000
G1 X13.052 Y77.552 Z-1.103 F400.000
G1 X13.077 Y77.634 Z-1.092 F400.000
G1 X13.103 Y77.723 Z-1.082 F400.000
G1 X13.155 Y77.917 Z-1.065 F400.000
G1 X13.196 Y78.090 Z-1.044 F400.000
G1 X13.213 Y78.170 Z-1.036 F400.000
G1 X13.288 Y78.556 Z-1.005 F400.000
G1 X13.301 Y78.630 Z-1.000 F400.000
G1 X13.320 Y78.752 Z-0.995 F400.000
G1 X13.353 Y79.036 Z-0.971 F400.000
G1 X13.360 Y79.101 Z-0.967 F400.000
G1 X13.397 Y79.527 Z-0.945 F400.000
G1 X13.401 Y79.584 Z-0.943 F400.000
G1 X13.405 Y79.664 Z-0.941 F400.000
G1 X13.413 Y80.032 Z-0.921 F400.000
G1 X13.414 Y80.083 Z-0.919 F400.000
G1 X13.413 Y80.396 Z-0.909 F400.000
G1 X13.407 Y80.553 Z-0.900 F400.000
G1 X13.404 Y80.613 Z-0.897 F400.000
G1 X13.367 Y81.125 Z-0.880 F400.000
G1 X13.306 Y81.712 Z-0.841 F400.000
G1 X13.300 Y81.765 Z-0.839 F400.000
G1 X13.288 Y81.853 Z-0.835 F400.000
G1 X13.164 Y82.585 Z-0.783 F400.000
G1 X13.072 Y83.043 Z-0.736 F400.000
G1 X13.066 Y83.075 Z-0.734 F400.000
G1 X13.018 Y83.289 Z-0.716 F400.000
G1 X12.858 Y83.918 Z-0.646 F400.000
G1 X12.743 Y84.314 Z-0.586 F400.000
G1 X12.733 Y84.345 Z-0.582 F400.000
G1 X12.692 Y84.471 Z-0.566 F400.000
G1 X12.623 Y84.658 Z-0.533 F400.000
G0 Z3.000
G0 X12.961 Y85.242 Z3.000
G1 X12.961 Y85.242 Z0.050 F400.000
G1 X12.623 Y84.658 Z-0.534 F400.000
G1 X11.916 Y85.242 Z0.050 F400.000
G0 Z3.000
G0 X5.222 Y85.933 Z3.000
G1 X5.222 Y85.933 Z0.050 F400.000
G1 X3.707 Y84.418 Z-1.465 F400.000
G1 X3.599 Y84.307 Z-1.573 F400.000
G1 X2.891 Y84.291 Z-1.568 F400.000
G1 X2.852 Y84.290 Z-1.568 F400.000
G1 X2.833 Y84.288 Z-1.568 F400.000
G1 X2.086 Y84.234 Z-1.554 F400.000
G1 X2.084 Y84.234 Z-1.554 F400.000
G1 X2.015 Y84.226 Z-1.551 F400.000
G1 X1.391 Y84.145 Z-1.531 F400.000
G1 X1.328 Y84.134 Z-1.526 F400.000
G1 X1.248 Y84.120 Z-1.522 F400.000
G1 X0.763 Y84.024 Z-1.498 F400.000
G1 X0.624 Y83.990 Z-1.485 F400.000
G1 X0.533 Y83.967 Z-1.478 F400.000
G1 X0.198 Y83.874 Z-1.457 F400.000
G1 X-0.027 Y83.799 Z-1.431 F400.000
G1 X-0.128 Y83.764 Z-1.421 F400.000
G1 X-0.312 Y83.695 Z-1.406 F400.000
G1 X-0.620 Y83.561 Z-1.363 F400.000
G1 X-0.736 Y83.508 Z-1.350 F400.000
G1 X-0.774 Y83.488 Z-1.346 F400.000
G1 X-1.160 Y83.270 Z-1.282 F400.000
G1 X-1.196 Y83.249 Z-1.276 F400.000
G1 X-1.278 Y83.192 Z-1.259 F400.000
G1 X-1.584 Y82.968 Z-1.202 F400.000
G1 X-1.634 Y82.927 Z-1.188 F400.000
G1 X-1.747 Y82.828 Z-1.160 F400.000
G1 X-1.947 Y82.639 Z-1.117 F400.000
G1 X-2.042 Y82.539 Z-1.087 F400.000
G1 X-2.136 Y82.433 Z-1.061 F400.000
G1 X-2.286 Y82.252 Z-1.025 F400.000
G1 X-2.381 Y82.123 Z-0.991 F400.000
G1 X-2.462 Y82.005 Z-0.966 F400.000
G1 X-2.596 Y81.794 Z-0.929 F400.000
G1 X-2.661 Y81.678 Z-0.903 F400.000
G1 X-2.724 Y81.555 Z-0.880 F400.000
G1 X-2.864 Y81.258 Z-0.837 F400.000
G1 X-2.882 Y81.213 Z-0.828 F400.000
G1 X-2.925 Y81.099 Z-0.810 F400.000
G1 X-3.043 Y80.738 Z-0.768 F400.000
G1 X-3.072 Y80.643 Z-0.760 F400.000
G1 X-3.074 Y80.633 Z-0.760 F400.000
G1 X-3.153 Y80.251 Z-0.726 F400.000
G1 X-3.171 Y80.152 Z-0.720 F400.000
G1 X-3.199 Y79.953 Z-0.715 F400.000
G1 X-3.220 Y79.749 Z-0.702 F400.000
G1 X-3.227 Y79.663 Z-0.699 F400.000
G1 X-3.245 Y79.234 Z-0.695 F400.000
G1 X-3.246 Y79.197 Z-0.695 F400.000
G1 X-3.246 Y79.158 Z-0.695 F400.000
G1 X-3.223 Y78.687 Z-0.698 F400.000
G1 X-3.217 Y78.601 Z-0.701 F400.000
G1 X-3.196 Y78.396 Z-0.714 F400.000
G1 X-3.160 Y78.155 Z-0.718 F400.000
G1 X-3.143 Y78.062 Z-0.723 F400.000
G1 X-3.056 Y77.650 Z-0.757 F400.000
G1 X-3.053 Y77.638 Z-0.757 F400.000
G1 X-3.023 Y77.534 Z-0.766 F400.000
G1 X-2.954 Y77.319 Z-0.790 F400.000
G1 X-2.888 Y77.132 Z-0.806 F400.000
G1 X-2.846 Y77.025 Z-0.819 F400.000
G1 X-2.834 Y76.996 Z-0.824 F400.000
G1 X-2.695 Y76.693 Z-0.866 F400.000
G1 X-2.669 Y76.640 Z-0.872 F400.000
G1 X-2.610 Y76.529 Z-0.888 F400.000
G1 X-2.540 Y76.409 Z-0.910 F400.000
G1 X-2.386 Y76.160 Z-0.949 F400.000
G1 X-2.374 Y76.140 Z-0.953 F400.000
G1 X-2.312 Y76.054 Z-0.968 F400.000
G1 X-2.192 Y75.894 Z-1.002 F400.000
G1 X-2.039 Y75.703 Z-1.035 F400.000
G1 X-2.004 Y75.661 Z-1.043 F400.000
G1 X-1.950 Y75.603 Z-1.056 F400.000
G1 X-1.797 Y75.444 Z-1.092 F400.000
G1 X-1.622 Y75.273 Z-1.126 F400.000
G1 X-1.588 Y75.240 Z-1.133 F400.000
G1 X-1.524 Y75.185 Z-1.145 F400.000
G1 X-1.363 Y75.053 Z-1.179 F400.000
G1 X-1.142 Y74.882 Z-1.216 F400.000
G1 X-1.131 Y74.873 Z-1.218 F400.000
G1 X-1.037 Y74.809 Z-1.233 F400.000
G1 X-0.886 Y74.710 Z-1.261 F400.000
G1 X-0.633 Y74.555 Z-1.298 F400.000
G1 X-0.600 Y74.536 Z-1.301 F400.000
G1 X-0.492 Y74.477 Z-1.316 F400.000
G1 X-0.370 Y74.415 Z-1.335 F400.000
G1 X-0.095 Y74.284 Z-1.368 F400.000
G1 X-0.002 Y74.242 Z-1.376 F400.000
G1 X0.107 Y74.197 Z-1.388 F400.000
G1 X0.198 Y74.161 Z-1.400 F400.000
G1 X0.505 Y74.050 Z-1.430 F400.000
G1 X0.651 Y74.001 Z-1.441 F400.000
G1 X0.751 Y73.969 Z-1.450 F400.000
G1 X0.811 Y73.952 Z-1.456 F400.000
G1 X1.349 Y73.813 Z-1.493 F400.000
G1 X1.441 Y73.791 Z-1.501 F400.000
G1 X1.532 Y73.771 Z-1.510 F400.000
G1 X2.088 Y73.671 Z-1.540 F400.000
G1 X2.172 Y73.657 Z-1.546 F400.000
G1 X2.309 Y73.636 Z-1.557 F400.000
G1 X2.869 Y73.573 Z-1.581 F400.000
G1 X2.948 Y73.565 Z-1.586 F400.000
G1 X3.165 Y73.546 Z-1.600 F400.000
G1 X3.693 Y73.518 Z-1.617 F400.000
G1 X4.102 Y73.521 Z-1.655 F400.000
G1 X4.436 Y73.570 Z-1.713 F400.000
G1 X4.475 Y75.147 Z-0.697 F400.000
G1 X4.476 Y75.184 Z-0.696 F400.000
G1 X4.476 Y82.686 Z-0.696 F400.000
G1 X4.439 Y83.015 Z-0.864 F400.000
G1 X4.329 Y83.348 Z-1.033 F400.000
G1 X4.138 Y83.690 Z-1.207 F400.000
G1 X3.943 Y83.947 Z-1.338 F400.000
G1 X3.703 Y84.205 Z-1.469 F400.000
G1 X3.599 Y84.307 Z-1.573 F400.000
G0 Z5.000
(Finish operation: Vcarve)
(Begin postamble)
M5
G17 G90
M2
